;FLAVOR:Marlin
;TIME:690
;Filament used: 0.315096m
;Layer height: 0.12
;MINX:137.658
;MINY:19
;MINZ:0.12
;MAXX:162.342
;MAXY:281
;MAXZ:1.32
;Generated with Cura_SteamEngine 5.2.1
M140 S50
M105
M190 S50
M104 S200
M105
M109 S200
M82 ;absolute extrusion mode
M201 X500.00 Y500.00 Z100.00 E5000.00 ;Setup machine max acceleration
M203 X500.00 Y500.00 Z10.00 E50.00 ;Setup machine max feedrate
M204 P500.00 R1000.00 T500.00 ;Setup Print/Retract/Travel acceleration
M205 X8.00 Y8.00 Z0.40 E5.00 ;Setup Jerk
M220 S100 ;Reset Feedrate
M221 S100 ;Reset Flowrate

G28 ;Home

G92 E0 ;Reset Extruder
G1 Z2.0 F3000 ;Move Z Axis up
G1 X10.1 Y20 Z0.28 F5000.0 ;Move to start position
G1 X10.1 Y200.0 Z0.28 F1500.0 E15 ;Draw the first line
G1 X10.4 Y200.0 Z0.28 F5000.0 ;Move to side a little
G1 X10.4 Y20 Z0.28 F1500.0 E30 ;Draw the second line
G92 E0 ;Reset Extruder
G1 Z2.0 F3000 ;Move Z Axis up

G92 E0
G92 E0
G1 F2700 E-5
;LAYER_COUNT:11
;LAYER:0
M107
G0 F6000 X137.853 Y27.995 Z0.12
;TYPE:SKIRT
G1 F2700 E0
G1 F1200 X138.064 Y27.081 E0.01872
G1 X138.352 Y26.189 E0.03743
G1 X138.715 Y25.324 E0.05615
G1 X139.15 Y24.493 E0.07486
G1 X139.654 Y23.703 E0.09356
G1 X140.224 Y22.958 E0.11228
G1 X140.856 Y22.264 E0.13102
G1 X141.544 Y21.627 E0.14973
G1 X142.284 Y21.051 E0.16844
G1 X143.07 Y20.539 E0.18716
G1 X143.897 Y20.097 E0.20587
G1 X144.759 Y19.727 E0.22459
G1 X145.649 Y19.431 E0.24331
G1 X146.561 Y19.213 E0.26202
G1 X147.488 Y19.072 E0.28074
G1 X148.359 Y19.013 E0.29816
G1 X148.988 Y19 E0.31071
G1 X150.793 Y19.001 E0.34673
G1 X151.491 Y19.011 E0.36066
G1 X152.427 Y19.065 E0.37937
G1 X153.355 Y19.197 E0.39808
G1 X154.269 Y19.409 E0.4168
G1 X155.161 Y19.698 E0.43551
G1 X156.026 Y20.061 E0.45424
G1 X156.856 Y20.497 E0.47295
G1 X157.647 Y21.002 E0.49167
G1 X158.391 Y21.573 E0.51039
G1 X159.084 Y22.205 E0.52911
G1 X159.721 Y22.893 E0.54782
G1 X160.296 Y23.634 E0.56653
G1 X160.807 Y24.42 E0.58524
G1 X161.249 Y25.248 E0.60397
G1 X161.618 Y26.11 E0.62269
G1 X161.913 Y27 E0.6414
G1 X162.131 Y27.912 E0.66011
G1 X162.271 Y28.84 E0.67884
G1 X162.329 Y29.701 E0.69606
G1 X162.342 Y30.33 E0.70861
G1 X162.341 Y269.4 E5.47951
G1 X162.332 Y270.127 E5.49402
G1 X162.281 Y271.064 E5.51275
G1 X162.149 Y271.992 E5.53146
G1 X161.94 Y272.906 E5.55017
G1 X161.653 Y273.799 E5.56889
G1 X161.291 Y274.665 E5.58762
G1 X160.857 Y275.496 E5.60633
G1 X160.353 Y276.287 E5.62504
G1 X159.784 Y277.032 E5.64375
G1 X159.153 Y277.727 E5.66248
G1 X158.466 Y278.365 E5.68119
G1 X157.727 Y278.942 E5.6999
G1 X156.941 Y279.454 E5.71862
G1 X156.115 Y279.897 E5.73733
G1 X155.253 Y280.269 E5.75606
G1 X154.364 Y280.565 E5.77476
G1 X153.452 Y280.785 E5.79348
G1 X152.525 Y280.926 E5.8122
G1 X151.641 Y280.987 E5.82988
G1 X151.012 Y281 E5.84243
G1 X149.223 Y280.999 E5.87814
G1 X148.525 Y280.99 E5.89207
G1 X147.589 Y280.938 E5.91077
G1 X146.66 Y280.806 E5.9295
G1 X145.746 Y280.596 E5.94821
G1 X144.853 Y280.309 E5.96693
G1 X143.988 Y279.946 E5.98565
G1 X143.157 Y279.512 E6.00436
G1 X142.366 Y279.008 E6.02308
G1 X141.621 Y278.438 E6.0418
G1 X140.927 Y277.807 E6.06052
G1 X140.29 Y277.12 E6.07921
G1 X139.713 Y276.38 E6.09794
G1 X139.201 Y275.594 E6.11666
G1 X138.758 Y274.767 E6.13538
G1 X138.387 Y273.906 E6.15409
G1 X138.091 Y273.016 E6.17281
G1 X137.872 Y272.104 E6.19153
G1 X137.731 Y271.177 E6.21024
G1 X137.671 Y270.288 E6.22802
G1 X137.658 Y269.658 E6.2406
G1 X137.659 Y30.525 E11.01275
G1 X137.668 Y29.86 E11.02602
G1 X137.721 Y28.924 E11.04473
G1 X137.853 Y27.995 E11.06346
G0 F6000 X138.252 Y28.035
G1 F1200 X138.463 Y27.139 E11.08183
G1 X138.75 Y26.264 E11.10021
G1 X139.113 Y25.418 E11.11858
G1 X139.547 Y24.606 E11.13695
G1 X140.05 Y23.835 E11.15532
G1 X140.619 Y23.111 E11.1737
G1 X141.247 Y22.439 E11.19205
G1 X141.932 Y21.823 E11.21044
G1 X142.668 Y21.27 E11.22881
G1 X143.449 Y20.782 E11.24719
G1 X144.269 Y20.364 E11.26555
G1 X145.123 Y20.019 E11.28393
G1 X146.003 Y19.749 E11.3023
G1 X146.903 Y19.557 E11.32067
G1 X147.817 Y19.443 E11.33905
G1 X148.37 Y19.413 E11.3501
G1 X148.988 Y19.4 E11.36244
G1 X150.635 Y19.4 E11.39531
G1 X151.485 Y19.411 E11.41227
G1 X152.404 Y19.464 E11.43064
G1 X153.315 Y19.597 E11.44901
G1 X154.211 Y19.808 E11.46738
G1 X155.085 Y20.096 E11.48575
G1 X155.932 Y20.459 E11.50414
G1 X156.743 Y20.894 E11.5225
G1 X157.513 Y21.398 E11.54087
G1 X158.237 Y21.967 E11.55924
G1 X158.909 Y22.597 E11.57762
G1 X159.524 Y23.282 E11.596
G1 X160.077 Y24.018 E11.61437
G1 X160.564 Y24.799 E11.63273
G1 X160.981 Y25.62 E11.65111
G1 X161.326 Y26.474 E11.66949
G1 X161.595 Y27.354 E11.68786
G1 X161.787 Y28.255 E11.70624
G1 X161.9 Y29.168 E11.7246
G1 X161.929 Y29.712 E11.73547
G1 X161.942 Y30.33 E11.74781
G1 X161.941 Y269.395 E16.51861
G1 X161.932 Y270.122 E16.53312
G1 X161.881 Y271.041 E16.55148
G1 X161.75 Y271.953 E16.56987
G1 X161.54 Y272.849 E16.58823
G1 X161.254 Y273.724 E16.60661
G1 X160.893 Y274.571 E16.62498
G1 X160.459 Y275.383 E16.64335
G1 X159.957 Y276.155 E16.66173
G1 X159.389 Y276.88 E16.68011
G1 X158.761 Y277.553 E16.69848
G1 X158.077 Y278.169 E16.71685
G1 X157.342 Y278.723 E16.73522
G1 X156.562 Y279.212 E16.75359
G1 X155.742 Y279.631 E16.77196
G1 X154.889 Y279.977 E16.79033
G1 X154.009 Y280.248 E16.80871
G1 X153.109 Y280.441 E16.82708
G1 X152.195 Y280.556 E16.84546
G1 X151.63 Y280.587 E16.85675
G1 X151.012 Y280.6 E16.86909
G1 X149.228 Y280.599 E16.90469
G1 X148.53 Y280.59 E16.91862
G1 X147.611 Y280.538 E16.93699
G1 X146.7 Y280.407 E16.95536
G1 X145.804 Y280.197 E16.97372
G1 X144.929 Y279.91 E16.9921
G1 X144.082 Y279.548 E17.01048
G1 X143.27 Y279.114 E17.02886
G1 X142.499 Y278.612 E17.04722
G1 X141.774 Y278.044 E17.06559
G1 X141.101 Y277.415 E17.08398
G1 X140.486 Y276.731 E17.10233
G1 X139.932 Y275.996 E17.1207
G1 X139.444 Y275.215 E17.13908
G1 X139.025 Y274.395 E17.15746
G1 X138.679 Y273.542 E17.17583
G1 X138.409 Y272.662 E17.1942
G1 X138.216 Y271.761 E17.21258
G1 X138.102 Y270.848 E17.23095
G1 X138.071 Y270.277 E17.24236
G1 X138.058 Y269.658 E17.25471
G1 X138.059 Y30.531 E22.02675
G1 X138.068 Y29.866 E22.04002
G1 X138.12 Y28.946 E22.05841
G1 X138.252 Y28.035 E22.07678
G0 F6000 X138.652 Y28.076
G1 F1200 X138.862 Y27.198 E22.0948
G1 X139.149 Y26.341 E22.11283
G1 X139.511 Y25.514 E22.13085
G1 X139.944 Y24.722 E22.14886
G1 X140.446 Y23.971 E22.16689
G1 X141.013 Y23.267 E22.18493
G1 X141.639 Y22.617 E22.20294
G1 X142.32 Y22.024 E22.22096
G1 X143.052 Y21.494 E22.23899
G1 X143.827 Y21.031 E22.25701
G1 X144.64 Y20.638 E22.27503
G1 X145.485 Y20.318 E22.29306
G1 X146.354 Y20.075 E22.31107
G1 X147.242 Y19.909 E22.32909
G1 X148.381 Y19.813 E22.3519
G1 X148.988 Y19.8 E22.36402
G1 X150.635 Y19.8 E22.39689
G1 X151.479 Y19.811 E22.41373
G1 X152.381 Y19.864 E22.43176
G1 X153.274 Y19.996 E22.44978
G1 X154.152 Y20.207 E22.4678
G1 X155.008 Y20.495 E22.48582
G1 X155.835 Y20.857 E22.50384
G1 X156.627 Y21.292 E22.52187
G1 X157.378 Y21.794 E22.5399
G1 X158.081 Y22.361 E22.55792
G1 X158.731 Y22.988 E22.57594
G1 X159.323 Y23.67 E22.59397
G1 X159.853 Y24.401 E22.61198
G1 X160.315 Y25.177 E22.63001
G1 X160.708 Y25.99 E22.64803
G1 X161.026 Y26.835 E22.66604
G1 X161.269 Y27.705 E22.68407
G1 X161.434 Y28.593 E22.7021
G1 X161.529 Y29.723 E22.72473
G1 X161.542 Y30.33 E22.73684
G1 X161.541 Y269.39 E27.50754
G1 X161.532 Y270.117 E27.52205
G1 X161.481 Y271.019 E27.54008
G1 X161.35 Y271.913 E27.55811
G1 X161.141 Y272.791 E27.57612
G1 X160.855 Y273.648 E27.59415
G1 X160.494 Y274.476 E27.61218
G1 X160.062 Y275.268 E27.63018
G1 X159.561 Y276.02 E27.64821
G1 X158.995 Y276.724 E27.66624
G1 X158.37 Y277.375 E27.68425
G1 X157.689 Y277.969 E27.70228
G1 X156.958 Y278.5 E27.72031
G1 X156.184 Y278.964 E27.73832
G1 X155.371 Y279.358 E27.75635
G1 X154.527 Y279.678 E27.77437
G1 X153.657 Y279.923 E27.7924
G1 X152.77 Y280.089 E27.81041
G1 X151.619 Y280.187 E27.83346
G1 X151.012 Y280.2 E27.84558
G1 X149.233 Y280.199 E27.88108
G1 X148.535 Y280.19 E27.89501
G1 X147.634 Y280.139 E27.91302
G1 X146.74 Y280.007 E27.93105
G1 X145.862 Y279.798 E27.94907
G1 X145.005 Y279.511 E27.9671
G1 X144.178 Y279.15 E27.98511
G1 X143.385 Y278.717 E28.00314
G1 X142.634 Y278.216 E28.02116
G1 X141.93 Y277.65 E28.03918
G1 X141.279 Y277.024 E28.05721
G1 X140.686 Y276.343 E28.07523
G1 X140.156 Y275.612 E28.09324
G1 X139.692 Y274.837 E28.11127
G1 X139.298 Y274.024 E28.1293
G1 X138.978 Y273.18 E28.14731
G1 X138.734 Y272.31 E28.16534
G1 X138.568 Y271.422 E28.18337
G1 X138.471 Y270.267 E28.2065
G1 X138.458 Y269.658 E28.21866
G1 X138.459 Y30.536 E32.9906
G1 X138.468 Y29.871 E33.00387
G1 X138.52 Y28.969 E33.0219
G1 X138.652 Y28.076 E33.03991
G1 F2700 E28.03991
;MESH:coil_holder final.stl
G0 F6000 X147.993 Y30.414
G0 X149.072 Y30.414
G0 X149.729 Y268.929
;TYPE:WALL-INNER
G1 F2700 E33.03991
G1 F885.6 X150.271 Y268.929 E33.05457
G1 X150.271 Y31.342 E39.47904
G1 X150.271 Y31.071 E39.48637
G1 X149.729 Y31.071 E39.50102
G1 X149.729 Y268.929 E45.93282
G0 F6000 X149.258 Y269.4
G1 F1200 X150.742 Y269.4 E45.96243
G1 X150.742 Y31.342 E50.71314
G1 X150.742 Y30.6 E50.72795
G1 X149.258 Y30.6 E50.75756
G1 X149.258 Y269.4 E55.52307
G0 F6000 X148.858 Y269.8
;TYPE:WALL-OUTER
G1 F1200 X151.142 Y269.8 E55.56865
G1 X151.142 Y31.342 E60.32734
G1 X151.142 Y30.2 E60.35013
G1 X148.858 Y30.2 E60.39571
G1 X148.858 Y269.8 E65.17719
G0 F6000 X149.74 Y268.8
;MESH:NONMESH
G0 F300 X149.74 Y268.8 Z0.24
G0 F6000 X149.736 Y268.937
;TIME_ELAPSED:171.481650
;LAYER:1
M106 S85
;TYPE:WALL-INNER
;MESH:coil_holder final.stl
G1 F1024.7 X150.264 Y268.937 E65.19107
G1 X150.264 Y31.327 E71.43834
G1 X150.264 Y31.063 E71.44528
G1 X149.736 Y31.063 E71.45917
G1 X149.736 Y268.937 E77.71338
G0 F7500 X149.273 Y269.4
G1 F1350 X150.727 Y269.4 E77.7424
G1 X150.727 Y31.327 E82.4934
G1 X150.727 Y30.6 E82.50791
G1 X149.273 Y30.6 E82.53693
G1 X149.273 Y269.4 E87.30244
G0 F7500 X148.873 Y269.8
;TYPE:WALL-OUTER
G1 F1350 X151.127 Y269.8 E87.34742
G1 X151.127 Y31.327 E92.10641
G1 X151.127 Y30.2 E92.1289
G1 X148.873 Y30.2 E92.17388
G1 X148.873 Y269.8 E96.95536
G0 F7500 X149.755 Y268.8
;MESH:NONMESH
G0 F300 X149.755 Y268.8 Z0.36
G0 F7500 X149.744 Y268.945
;TIME_ELAPSED:242.743347
;LAYER:2
M106 S170
;TYPE:WALL-INNER
;MESH:coil_holder final.stl
G1 F1174.2 X150.256 Y268.945 E96.96841
G1 X150.256 Y31.311 E103.02662
G1 X150.256 Y31.055 E103.03315
G1 X149.744 Y31.055 E103.0462
G1 X149.744 Y268.945 E109.11095
G0 F9000 X149.289 Y269.4
G1 F1500 X150.711 Y269.4 E109.13932
G1 X150.711 Y31.311 E113.89065
G1 X150.711 Y30.6 E113.90484
G1 X149.289 Y30.6 E113.93321
G1 X149.289 Y269.4 E118.69872
G0 F9000 X148.889 Y269.8
;TYPE:WALL-OUTER
G1 F1500 X151.111 Y269.8 E118.74307
G1 X151.111 Y31.311 E123.50237
G1 X151.111 Y30.2 E123.52454
G1 X148.889 Y30.2 E123.56889
G1 X148.889 Y269.8 E128.35036
G0 F9000 X149.771 Y268.8
;MESH:NONMESH
G0 F300 X149.771 Y268.8 Z0.48
G0 F9000 X149.762 Y268.963
;TIME_ELAPSED:306.214533
;LAYER:3
M106 S255
;TYPE:WALL-INNER
;MESH:coil_holder final.stl
G1 F1263.2 X150.238 Y268.963 E128.36164
G1 X150.238 Y31.275 E133.99434
G1 X150.238 Y31.037 E133.99998
G1 X149.762 Y31.037 E134.01126
G1 X149.762 Y268.963 E139.64959
G0 F9000 X149.325 Y269.4
G1 F1500 X150.675 Y269.4 E139.67653
G1 X150.675 Y31.275 E144.42857
G1 X150.675 Y30.6 E144.44204
G1 X149.325 Y30.6 E144.46899
G1 X149.325 Y269.4 E149.2345
G0 F9000 X148.925 Y269.8
;TYPE:WALL-OUTER
G1 F1500 X151.075 Y269.8 E149.2774
G1 X151.075 Y31.275 E154.03743
G1 X151.075 Y30.2 E154.05888
G1 X148.925 Y30.2 E154.10179
G1 X148.925 Y269.8 E158.88326
G0 F9000 X149.807 Y268.8
;MESH:NONMESH
G0 F300 X149.807 Y268.8 Z0.6
G0 F9000 X149.787 Y268.988
;TIME_ELAPSED:367.966679
;LAYER:4
;TYPE:WALL-INNER
;MESH:coil_holder final.stl
G1 F1411.8 X150.213 Y268.988 E158.8923
G1 X150.213 Y31.225 E163.93366
G1 X150.213 Y31.012 E163.93818
G1 X149.787 Y31.012 E163.94721
G1 X149.787 Y268.988 E168.9931
G0 F9000 X149.375 Y269.4
G1 F1500 X150.625 Y269.4 E169.01804
G1 X150.625 Y31.225 E173.77108
G1 X150.625 Y30.6 E173.78356
G1 X149.375 Y30.6 E173.8085
G1 X149.375 Y269.4 E178.57401
G0 F9000 X148.975 Y269.8
;TYPE:WALL-OUTER
G1 F1500 X151.025 Y269.8 E178.61492
G1 X151.025 Y31.225 E183.37594
G1 X151.025 Y30.2 E183.3964
G1 X148.975 Y30.2 E183.43731
G1 X148.975 Y269.8 E188.21879
G0 F9000 X149.857 Y268.8
;MESH:NONMESH
G0 F300 X149.857 Y268.8 Z0.72
G0 F9000 X149.812 Y269.013
;TIME_ELAPSED:427.330858
;LAYER:5
;TYPE:WALL-INNER
;MESH:coil_holder final.stl
G1 F1600 X150.188 Y269.013 E188.22582
G1 X150.188 Y31.175 E192.67549
G1 X150.188 Y30.987 E192.67901
G1 X149.812 Y30.987 E192.68604
G1 X149.812 Y269.013 E197.13923
G0 F9000 X149.425 Y269.4
G1 F1500 X150.575 Y269.4 E197.16218
G1 X150.575 Y31.175 E201.91622
G1 X150.575 Y30.6 E201.92769
G1 X149.425 Y30.6 E201.95064
G1 X149.425 Y269.4 E206.71615
G0 F9000 X149.025 Y269.8
;TYPE:WALL-OUTER
G1 F1500 X150.975 Y269.8 E206.75507
G1 X150.975 Y31.175 E211.51709
G1 X150.975 Y30.2 E211.53654
G1 X149.025 Y30.2 E211.57546
G1 X149.025 Y269.8 E216.35694
G0 F9000 X149.907 Y268.8
;MESH:NONMESH
G0 F300 X149.907 Y268.8 Z0.84
G0 F9000 X149.511 Y269.4
;TIME_ELAPSED:484.338687
;LAYER:6
;TYPE:WALL-INNER
;MESH:coil_holder final.stl
G1 F1500 X150.489 Y269.4 E216.37645
G1 X150.489 Y31.089 E221.13221
G1 X150.489 Y30.6 E221.14196
G1 X149.511 Y30.6 E221.16148
G1 X149.511 Y269.4 E225.92699
G0 F9000 X149.111 Y269.8
;TYPE:WALL-OUTER
G1 F1500 X150.889 Y269.8 E225.96248
G1 X150.889 Y31.089 E230.72621
G1 X150.889 Y30.2 E230.74395
G1 X149.111 Y30.2 E230.77943
G1 X149.111 Y269.8 E235.56091
G0 F9000 X149.381 Y269.53
G0 X150 Y268.911
;TYPE:WALL-INNER
G1 F1038.1 X150 Y31.089 E242.41887
G0 F9000 X150.111 Y31.089
G1 F2700 E237.41887
;MESH:NONMESH
G0 F300 X150.111 Y31.089 Z0.96
G0 F9000 X149.781 Y269.13
G1 F2700 E242.41887
G0 F9000 X149.603 Y269.4
;TIME_ELAPSED:539.279917
;LAYER:7
;TYPE:WALL-INNER
;MESH:coil_holder final.stl
G1 F1500 X150.397 Y269.4 E242.43472
G1 X150.397 Y30.997 E247.19231
G1 X150.397 Y30.6 E247.20023
G1 X149.603 Y30.6 E247.21608
G1 X149.603 Y269.4 E251.98159
G0 F9000 X150 Y269.003
G1 F1522.8 X150 Y30.997 E256.66001
G1 F2700 E251.66001
G0 F9000 X149.473 Y269.53
G1 F2700 E256.66001
G0 F9000 X149.203 Y269.8
;TYPE:WALL-OUTER
G1 F1500 X150.797 Y269.8 E256.69182
G1 X150.797 Y30.997 E261.45739
G1 X150.797 Y30.2 E261.4733
G1 X149.203 Y30.2 E261.50511
G1 X149.203 Y269.8 E266.28659
;MESH:NONMESH
G0 F300 X149.203 Y269.8 Z1.08
G0 F9000 X149.765 Y269.365
;TIME_ELAPSED:589.800802
;LAYER:8
;TYPE:WALL-INNER
;MESH:coil_holder final.stl
G1 F1276.6 X150.235 Y269.365 E266.29761
G1 X150.235 Y30.87 E271.88993
G1 X150.235 Y30.635 E271.89544
G1 X149.765 Y30.635 E271.90646
G1 X149.765 Y269.365 E277.5043
G0 F9000 X149.33 Y269.8
;TYPE:WALL-OUTER
G1 F1500 X150.67 Y269.8 E277.53104
G1 X150.67 Y30.87 E282.29915
G1 X150.67 Y30.2 E282.31252
G1 X149.33 Y30.2 E282.33926
G1 X149.33 Y269.8 E287.12073
;MESH:NONMESH
G0 F300 X149.33 Y269.8 Z1.2
G0 F9000 X149.487 Y269.8
;TIME_ELAPSED:631.879745
;LAYER:9
;TYPE:WALL-OUTER
;MESH:coil_holder final.stl
G1 F1500 X150.513 Y269.8 E287.14121
G1 X150.513 Y30.713 E291.91245
G1 X150.513 Y30.2 E291.92269
G1 X149.487 Y30.2 E291.94316
G1 X149.487 Y269.8 E296.72464
G0 F9000 X150 Y269.287
;TYPE:WALL-INNER
G1 F958.5 X150 Y30.713 E304.17561
G1 F2700 E299.17561
;MESH:NONMESH
G0 F300 X150 Y30.713 Z1.32
G0 F9000 X149.772 Y269.5
G1 F2700 E304.17561
G0 F9000 X149.772 Y269.772
;TIME_ELAPSED:668.573756
;LAYER:10
;TYPE:WALL-OUTER
;MESH:coil_holder final.stl
G1 F1315.8 X150.228 Y269.772 E304.18598
G1 X150.228 Y30.228 E309.63559
G1 X149.772 Y30.228 E309.64596
G1 X149.772 Y269.772 E315.09557
;TIME_ELAPSED:690.551646
G1 F2700 E310.09557
M140 S0
M107
G91 ;Relative positioning
G1 E-2 F2700 ;Retract a bit
G1 E-2 Z0.2 F2400 ;Retract and raise Z
G1 X5 Y5 F3000 ;Wipe out
G1 Z10 ;Raise Z more
G90 ;Absolute positioning

G1 X0 Y300 ;Present print
M106 S0 ;Turn-off fan
M104 S0 ;Turn-off hotend
M140 S0 ;Turn-off bed

M84 X Y E ;Disable all steppers but Z

M82 ;absolute extrusion mode
M104 S0
;End of Gcode
