;FLAVOR:Marlin
;TIME:75
;Filament used: 0.0253815m
;Layer height: 0.2
;MINX:138.462
;MINY:134.001
;MINZ:0.2
;MAXX:161.538
;MAXY:165.999
;MAXZ:3
;Generated with Cura_SteamEngine 5.2.1
M140 S50
M105
M190 S50
M104 S200
M105
M109 S200
M82 ;absolute extrusion mode
M201 X500.00 Y500.00 Z100.00 E5000.00 ;Setup machine max acceleration
M203 X500.00 Y500.00 Z10.00 E50.00 ;Setup machine max feedrate
M204 P500.00 R1000.00 T500.00 ;Setup Print/Retract/Travel acceleration
M205 X8.00 Y8.00 Z0.40 E5.00 ;Setup Jerk
M220 S100 ;Reset Feedrate
M221 S100 ;Reset Flowrate

G28 ;Home

G92 E0 ;Reset Extruder
G1 Z2.0 F3000 ;Move Z Axis up
G1 X10.1 Y20 Z0.28 F5000.0 ;Move to start position
G1 X10.1 Y200.0 Z0.28 F1500.0 E15 ;Draw the first line
G1 X10.4 Y200.0 Z0.28 F5000.0 ;Move to side a little
G1 X10.4 Y20 Z0.28 F1500.0 E30 ;Draw the second line
G92 E0 ;Reset Extruder
G1 Z2.0 F3000 ;Move Z Axis up

G92 E0
G92 E0
G1 F2700 E-5
;LAYER_COUNT:15
;LAYER:0
M107
G0 F6000 X141.66 Y137.264 Z0.2
;TYPE:SKIRT
G1 F2700 E0
G1 F1200 X142.348 Y136.627 E0.03119
G1 X143.088 Y136.051 E0.06237
G1 X143.874 Y135.539 E0.09357
G1 X144.701 Y135.097 E0.12476
G1 X145.563 Y134.727 E0.15596
G1 X146.453 Y134.431 E0.18716
G1 X147.365 Y134.213 E0.21835
G1 X148.292 Y134.072 E0.24953
G1 X149.196 Y134.012 E0.27967
G1 X149.989 Y134.001 E0.30604
G1 X150.687 Y134.011 E0.32926
G1 X151.623 Y134.065 E0.36045
G1 X152.551 Y134.197 E0.39162
G1 X153.465 Y134.409 E0.42283
G1 X154.357 Y134.698 E0.45401
G1 X155.222 Y135.061 E0.48521
G1 X156.052 Y135.497 E0.5164
G1 X156.843 Y136.002 E0.54761
G1 X157.587 Y136.573 E0.5788
G1 X158.28 Y137.205 E0.61
G1 X158.917 Y137.893 E0.64118
G1 X159.492 Y138.634 E0.67238
G1 X160.003 Y139.42 E0.70356
G1 X160.445 Y140.248 E0.73478
G1 X160.814 Y141.11 E0.76597
G1 X161.109 Y142 E0.79715
G1 X161.327 Y142.912 E0.82834
G1 X161.467 Y143.84 E0.85955
G1 X161.525 Y144.701 E0.88826
G1 X161.538 Y145.33 E0.90918
G1 X161.537 Y154.4 E1.21085
G1 X161.528 Y155.127 E1.23503
G1 X161.477 Y156.064 E1.26624
G1 X161.345 Y156.992 E1.29742
G1 X161.136 Y157.906 E1.3286
G1 X160.849 Y158.799 E1.3598
G1 X160.487 Y159.665 E1.39102
G1 X160.053 Y160.496 E1.4222
G1 X159.549 Y161.287 E1.4534
G1 X158.98 Y162.032 E1.48458
G1 X158.349 Y162.727 E1.5158
G1 X157.662 Y163.365 E1.54698
G1 X156.923 Y163.942 E1.57816
G1 X156.137 Y164.454 E1.60936
G1 X155.311 Y164.897 E1.64054
G1 X154.449 Y165.269 E1.67177
G1 X153.56 Y165.565 E1.70293
G1 X152.648 Y165.785 E1.73413
G1 X151.721 Y165.926 E1.76532
G1 X150.804 Y165.988 E1.79589
G1 X150.027 Y165.999 E1.82173
G1 X149.329 Y165.99 E1.84495
G1 X148.393 Y165.938 E1.87613
G1 X147.464 Y165.806 E1.90734
G1 X146.55 Y165.596 E1.93853
G1 X145.657 Y165.309 E1.96973
G1 X144.792 Y164.946 E2.00093
G1 X143.961 Y164.512 E2.03211
G1 X143.17 Y164.008 E2.06331
G1 X142.425 Y163.438 E2.09451
G1 X141.731 Y162.807 E2.1257
G1 X141.094 Y162.12 E2.15686
G1 X140.517 Y161.38 E2.18807
G1 X140.005 Y160.594 E2.21927
G1 X139.562 Y159.767 E2.25048
G1 X139.191 Y158.906 E2.28166
G1 X138.895 Y158.016 E2.31286
G1 X138.676 Y157.104 E2.34405
G1 X138.535 Y156.177 E2.37524
G1 X138.475 Y155.288 E2.40487
G1 X138.462 Y154.658 E2.42583
G1 X138.463 Y145.525 E2.7296
G1 X138.472 Y144.86 E2.75172
G1 X138.525 Y143.924 E2.7829
G1 X138.657 Y142.995 E2.81411
G1 X138.868 Y142.081 E2.84531
G1 X139.156 Y141.189 E2.87648
G1 X139.519 Y140.324 E2.90768
G1 X139.954 Y139.493 E2.93888
G1 X140.458 Y138.703 E2.97005
G1 X141.028 Y137.958 E3.00125
G1 X141.66 Y137.264 E3.03247
G0 F6000 X142.051 Y137.439
G1 F1200 X142.736 Y136.823 E3.06311
G1 X143.472 Y136.27 E3.09373
G1 X144.253 Y135.782 E3.12436
G1 X145.073 Y135.364 E3.15497
G1 X145.927 Y135.019 E3.1856
G1 X146.807 Y134.749 E3.21622
G1 X147.707 Y134.557 E3.24683
G1 X148.621 Y134.443 E3.27746
G1 X149.206 Y134.412 E3.29695
G1 X149.983 Y134.401 E3.32279
G1 X150.681 Y134.411 E3.34601
G1 X151.6 Y134.464 E3.37663
G1 X152.511 Y134.597 E3.40725
G1 X153.407 Y134.808 E3.43786
G1 X154.281 Y135.096 E3.46847
G1 X155.128 Y135.459 E3.49912
G1 X155.939 Y135.894 E3.52973
G1 X156.709 Y136.398 E3.56034
G1 X157.433 Y136.967 E3.59097
G1 X158.105 Y137.597 E3.6216
G1 X158.72 Y138.282 E3.65222
G1 X159.273 Y139.018 E3.68284
G1 X159.76 Y139.799 E3.71345
G1 X160.177 Y140.62 E3.74408
G1 X160.522 Y141.474 E3.77471
G1 X160.791 Y142.354 E3.80532
G1 X160.983 Y143.255 E3.83596
G1 X161.096 Y144.168 E3.86656
G1 X161.125 Y144.712 E3.88468
G1 X161.138 Y145.33 E3.90524
G1 X161.137 Y154.395 E4.20674
G1 X161.128 Y155.122 E4.23092
G1 X161.077 Y156.041 E4.26154
G1 X160.946 Y156.953 E4.29218
G1 X160.736 Y157.849 E4.32279
G1 X160.45 Y158.724 E4.35341
G1 X160.089 Y159.571 E4.38403
G1 X159.655 Y160.383 E4.41465
G1 X159.153 Y161.155 E4.44528
G1 X158.585 Y161.88 E4.47591
G1 X157.957 Y162.553 E4.50653
G1 X157.273 Y163.169 E4.53715
G1 X156.538 Y163.723 E4.56776
G1 X155.758 Y164.212 E4.59838
G1 X154.938 Y164.631 E4.62901
G1 X154.085 Y164.977 E4.65962
G1 X153.205 Y165.248 E4.69025
G1 X152.305 Y165.441 E4.72086
G1 X151.391 Y165.556 E4.7515
G1 X150.794 Y165.588 E4.77139
G1 X150.032 Y165.599 E4.79673
G1 X149.334 Y165.59 E4.81995
G1 X148.415 Y165.538 E4.85056
G1 X147.504 Y165.407 E4.88118
G1 X146.608 Y165.197 E4.91179
G1 X145.733 Y164.91 E4.94241
G1 X144.886 Y164.548 E4.97305
G1 X144.074 Y164.114 E5.00367
G1 X143.303 Y163.612 E5.03427
G1 X142.578 Y163.044 E5.06491
G1 X141.905 Y162.415 E5.09554
G1 X141.29 Y161.731 E5.12614
G1 X140.736 Y160.996 E5.15675
G1 X140.248 Y160.215 E5.18738
G1 X139.829 Y159.395 E5.21801
G1 X139.483 Y158.542 E5.24862
G1 X139.213 Y157.662 E5.27924
G1 X139.02 Y156.761 E5.30989
G1 X138.906 Y155.848 E5.34049
G1 X138.875 Y155.277 E5.35951
G1 X138.862 Y154.658 E5.3801
G1 X138.863 Y145.531 E5.68367
G1 X138.872 Y144.866 E5.70579
G1 X138.924 Y143.946 E5.73643
G1 X139.056 Y143.035 E5.76705
G1 X139.267 Y142.139 E5.79767
G1 X139.554 Y141.264 E5.8283
G1 X139.917 Y140.418 E5.85891
G1 X140.351 Y139.606 E5.88954
G1 X140.854 Y138.835 E5.92016
G1 X141.423 Y138.111 E5.95078
G1 X142.051 Y137.439 E5.98137
G0 F6000 X142.443 Y137.617
G1 F1200 X143.124 Y137.024 E6.01141
G1 X143.856 Y136.494 E6.04147
G1 X144.631 Y136.031 E6.07149
G1 X145.444 Y135.638 E6.10153
G1 X146.289 Y135.318 E6.13158
G1 X147.158 Y135.075 E6.16159
G1 X148.046 Y134.909 E6.19164
G1 X149.216 Y134.812 E6.23069
G1 X149.977 Y134.801 E6.256
G1 X150.675 Y134.811 E6.27922
G1 X151.577 Y134.864 E6.30927
G1 X152.47 Y134.996 E6.33929
G1 X153.348 Y135.207 E6.36933
G1 X154.204 Y135.495 E6.39937
G1 X155.031 Y135.857 E6.42939
G1 X155.823 Y136.292 E6.45945
G1 X156.574 Y136.794 E6.48949
G1 X157.277 Y137.361 E6.51953
G1 X157.927 Y137.988 E6.54957
G1 X158.519 Y138.67 E6.5796
G1 X159.049 Y139.401 E6.60964
G1 X159.511 Y140.177 E6.63967
G1 X159.904 Y140.99 E6.66971
G1 X160.222 Y141.835 E6.69974
G1 X160.465 Y142.705 E6.72978
G1 X160.63 Y143.593 E6.75982
G1 X160.725 Y144.723 E6.79754
G1 X160.738 Y145.33 E6.81773
G1 X160.737 Y154.39 E7.11907
G1 X160.728 Y155.117 E7.14325
G1 X160.677 Y156.019 E7.1733
G1 X160.546 Y156.913 E7.20335
G1 X160.337 Y157.791 E7.23337
G1 X160.051 Y158.648 E7.26342
G1 X159.69 Y159.476 E7.29346
G1 X159.258 Y160.268 E7.32347
G1 X158.757 Y161.02 E7.35352
G1 X158.191 Y161.724 E7.38357
G1 X157.566 Y162.375 E7.41358
G1 X156.885 Y162.969 E7.44364
G1 X156.154 Y163.5 E7.47369
G1 X155.38 Y163.964 E7.5037
G1 X154.567 Y164.358 E7.53375
G1 X153.723 Y164.678 E7.56377
G1 X152.853 Y164.923 E7.59383
G1 X151.966 Y165.089 E7.62385
G1 X150.784 Y165.188 E7.6633
G1 X150.037 Y165.199 E7.68815
G1 X149.339 Y165.19 E7.71137
G1 X148.438 Y165.139 E7.74138
G1 X147.544 Y165.007 E7.77144
G1 X146.666 Y164.798 E7.80146
G1 X145.809 Y164.511 E7.83152
G1 X144.982 Y164.15 E7.86153
G1 X144.189 Y163.717 E7.89158
G1 X143.438 Y163.216 E7.92161
G1 X142.734 Y162.65 E7.95165
G1 X142.083 Y162.024 E7.98169
G1 X141.49 Y161.343 E8.01172
G1 X140.96 Y160.612 E8.04175
G1 X140.496 Y159.837 E8.0718
G1 X140.102 Y159.024 E8.10185
G1 X139.782 Y158.18 E8.13187
G1 X139.538 Y157.31 E8.16192
G1 X139.372 Y156.422 E8.19197
G1 X139.275 Y155.267 E8.23052
G1 X139.262 Y154.658 E8.25078
G1 X139.263 Y145.536 E8.55418
G1 X139.272 Y144.871 E8.5763
G1 X139.324 Y143.969 E8.60635
G1 X139.456 Y143.076 E8.63637
G1 X139.666 Y142.198 E8.6664
G1 X139.953 Y141.341 E8.69646
G1 X140.315 Y140.514 E8.72648
G1 X140.748 Y139.722 E8.7565
G1 X141.25 Y138.971 E8.78655
G1 X141.817 Y138.267 E8.81661
G1 X142.443 Y137.617 E8.84663
G1 F2700 E3.84663
;MESH:bamboo_holder.stl
G0 F6000 X149.876 Y144.335
G0 X149.731 Y154.731
;TYPE:WALL-OUTER
G1 F2700 E8.84663
G1 F892.2 X150.269 Y154.731 E8.8707
G1 X150.269 Y145.538 E9.28194
G1 X150.269 Y145.269 E9.29398
G1 X149.731 Y145.269 E9.31805
G1 X149.731 Y154.731 E9.74133
;MESH:NONMESH
G0 F300 X149.731 Y154.731 Z0.4
G0 F6000 X149.75 Y154.35
;TIME_ELAPSED:20.263422
;LAYER:1
M106 S85
;TYPE:WALL-INNER
;MESH:bamboo_holder.stl
G1 F480 X150.25 Y154.35 E9.76211
G1 X150.25 Y154.1 E9.77251
G1 X150.25 Y145.65 E10.12382
G1 X149.75 Y145.65 E10.14461
G1 X149.75 Y154.35 E10.50631
G0 F7500 X149.3 Y154.8
;TYPE:WALL-OUTER
G1 F600 X150.7 Y154.8 E10.55287
G1 X150.7 Y154.1 E10.57616
G1 X150.7 Y145.2 E10.87217
G1 X149.3 Y145.2 E10.91874
G1 X149.3 Y154.8 E11.23803
;MESH:NONMESH
G0 F300 X149.3 Y154.8 Z0.6
G0 F7500 X149.482 Y154.4
;TIME_ELAPSED:24.957491
;LAYER:2
M106 S170
;TYPE:WALL-INNER
;MESH:bamboo_holder.stl
G1 F600 X150.518 Y154.4 E11.27249
G1 X150.518 Y145.6 E11.56518
G1 X149.482 Y145.6 E11.59964
G1 X149.482 Y154.4 E11.89233
G0 F9000 X149.082 Y154.8
;TYPE:WALL-OUTER
G1 F600 X150.918 Y154.8 E11.95339
G1 X150.918 Y145.2 E12.27269
G1 X149.082 Y145.2 E12.33375
G1 X149.082 Y154.8 E12.65305
G0 F9000 X149.352 Y154.53
G0 X149.582 Y154.061
G0 X149.821 Y154.061
;TYPE:SKIN
G1 F670.4 X150.179 Y154.061 E12.66371
G1 X150.179 Y146.118 E12.90015
G1 X150.179 Y145.939 E12.90548
G1 X149.821 Y145.939 E12.91614
G1 X149.821 Y154.061 E13.15791
;MESH:NONMESH
G0 F300 X149.821 Y154.061 Z0.8
G0 F9000 X149.582 Y154.061
G0 X149.352 Y145.47
G0 X149.065 Y145.334
;TIME_ELAPSED:31.274088
;LAYER:3
M106 S255
;TYPE:WALL-OUTER
;MESH:bamboo_holder.stl
G1 F359.3 X149.065 Y154.666 E13.67625
G1 F2700 E8.67625
G0 F9000 X150.935 Y154.666
G1 F2700 E13.67625
G1 F359.3 X150.935 Y145.334 E14.1946
;MESH:NONMESH
G0 F300 X150.935 Y145.334 Z1
G0 F9000 X148.914 Y145.288
;TIME_ELAPSED:35.048025
;LAYER:4
;TYPE:WALL-OUTER
;MESH:bamboo_holder.stl
G1 F416.7 X148.914 Y154.712 E14.64595
G1 F2700 E9.64595
G0 F9000 X151.086 Y154.712
G1 F2700 E14.64595
G1 F416.7 X151.086 Y145.288 E15.09731
;MESH:NONMESH
G0 F300 X151.086 Y145.288 Z1.2
G0 F9000 X148.82 Y145.265
;TIME_ELAPSED:38.438145
;LAYER:5
;TYPE:WALL-OUTER
;MESH:bamboo_holder.stl
G1 F452.8 X148.82 Y154.735 E15.51465
G1 F2700 E10.51465
G0 F9000 X151.18 Y154.735
G1 F2700 E15.51465
G1 F452.8 X151.18 Y145.265 E15.93199
;MESH:NONMESH
G0 F300 X151.18 Y145.265 Z1.4
G0 F9000 X148.768 Y145.253
;TIME_ELAPSED:41.634982
;LAYER:6
;TYPE:WALL-OUTER
;MESH:bamboo_holder.stl
G1 F472.4 X148.768 Y154.747 E16.33302
G1 F2700 E11.33302
G0 F9000 X151.232 Y154.747
G1 F2700 E16.33302
G1 F474.3 X151.232 Y145.253 E16.73247
;MESH:NONMESH
G0 F300 X151.232 Y145.253 Z1.6
G0 F9000 X148.751 Y145.25
;TIME_ELAPSED:44.734831
;LAYER:7
;TYPE:WALL-OUTER
;MESH:bamboo_holder.stl
G1 F481.9 X148.751 Y154.75 E17.12586
G1 F2700 E12.12586
G0 F9000 X151.25 Y154.75
G1 F2700 E17.12586
G1 F480 X151.25 Y145.25 E17.52082
;MESH:NONMESH
G0 F300 X151.25 Y145.25 Z1.8
G0 F9000 X148.769 Y145.254
;TIME_ELAPSED:47.799514
;LAYER:8
;TYPE:WALL-OUTER
;MESH:bamboo_holder.stl
G1 F474.3 X148.769 Y154.747 E17.92023
G1 F2700 E12.92023
G0 F9000 X151.231 Y154.747
G1 F2700 E17.92023
G1 F472.4 X151.231 Y145.253 E18.32126
;MESH:NONMESH
G0 F300 X151.231 Y145.253 Z2
G0 F9000 X148.822 Y145.265
;TIME_ELAPSED:50.897122
;LAYER:9
;TYPE:WALL-OUTER
;MESH:bamboo_holder.stl
G1 F454.5 X148.822 Y154.735 E18.73703
G1 F2700 E13.73703
G0 F9000 X151.179 Y154.735
G1 F2700 E18.73703
G1 F452.8 X151.179 Y145.265 E19.15437
;MESH:NONMESH
G0 F300 X151.179 Y145.265 Z2.2
G0 F9000 X148.916 Y145.288
;TIME_ELAPSED:54.084838
;LAYER:10
;TYPE:WALL-OUTER
;MESH:bamboo_holder.stl
G1 F418.1 X148.916 Y154.712 E19.60416
G1 F2700 E14.60416
G0 F9000 X151.085 Y154.712
G1 F2700 E19.60416
G1 F416.7 X151.085 Y145.288 E20.05552
;MESH:NONMESH
G0 F300 X151.085 Y145.288 Z2.4
G0 F9000 X149.068 Y145.335
;TIME_ELAPSED:57.462625
;LAYER:11
;TYPE:WALL-OUTER
;MESH:bamboo_holder.stl
G1 F359.3 X149.068 Y154.666 E20.5738
G1 F2700 E15.5738
G0 F9000 X150.932 Y154.666
G1 F2700 E20.5738
G1 F358.2 X150.932 Y145.334 E21.09369
G1 F2700 E16.09369
;MESH:NONMESH
G0 F300 X150.932 Y145.334 Z2.6
G0 F9000 X151.931 Y145.333
G0 X151.919 Y144.347
G0 X148.08 Y144.347
G0 X148.069 Y154.401
G0 X149.486 Y154.4
;TIME_ELAPSED:61.942410
;LAYER:12
;TYPE:WALL-INNER
;MESH:bamboo_holder.stl
G1 F2700 E21.09369
G1 F600 X150.515 Y154.4 E21.12792
G1 X150.515 Y146.114 E21.40351
G1 X150.514 Y145.6 E21.42061
G1 X149.485 Y145.6 E21.45483
G1 X149.486 Y154.4 E21.74752
G0 F9000 X149.086 Y154.8
;TYPE:WALL-OUTER
G1 F600 X150.915 Y154.8 E21.80835
G1 X150.915 Y146.114 E22.09725
G1 X150.914 Y145.2 E22.12765
G1 X149.085 Y145.2 E22.18848
G1 X149.086 Y154.8 E22.50778
G0 F9000 X149.356 Y154.53
G0 X149.823 Y154.3
G0 X149.823 Y154.063
;TYPE:SKIN
G1 F676.1 X150.178 Y154.063 E22.51826
G1 X150.178 Y146.114 E22.7529
G1 X150.177 Y145.937 E22.75813
G1 X149.822 Y145.937 E22.76861
G1 X149.823 Y154.063 E23.00847
;MESH:NONMESH
G0 F300 X149.823 Y154.063 Z2.8
G0 F9000 X149.753 Y154.352
;TIME_ELAPSED:68.189406
;LAYER:13
;TYPE:WALL-INNER
;MESH:bamboo_holder.stl
G1 F483.9 X150.248 Y154.352 E23.02889
G1 X150.247 Y145.648 E23.38786
G1 X149.752 Y145.648 E23.40828
G1 X149.753 Y154.352 E23.76725
G0 F9000 X149.305 Y154.8
;TYPE:WALL-OUTER
G1 F600 X150.696 Y154.8 E23.81352
G1 X150.695 Y145.2 E24.13282
G1 X149.304 Y145.2 E24.17908
G1 X149.305 Y154.8 E24.49838
;MESH:NONMESH
G0 F300 X149.305 Y154.8 Z3
G0 F9000 X149.735 Y154.735
;TIME_ELAPSED:72.863084
;LAYER:14
;TYPE:WALL-OUTER
;MESH:bamboo_holder.stl
G1 F452 X150.266 Y154.735 E24.52182
G1 X150.266 Y145.53 E24.92825
G1 X150.265 Y145.265 E24.93995
G1 X149.734 Y145.265 E24.9634
G1 X149.735 Y154.735 E25.38152
;TIME_ELAPSED:75.526801
G1 F2700 E20.38152
M140 S0
M107
G91 ;Relative positioning
G1 E-2 F2700 ;Retract a bit
G1 E-2 Z0.2 F2400 ;Retract and raise Z
G1 X5 Y5 F3000 ;Wipe out
G1 Z10 ;Raise Z more
G90 ;Absolute positioning

G1 X0 Y300 ;Present print
M106 S0 ;Turn-off fan
M104 S0 ;Turn-off hotend
M140 S0 ;Turn-off bed

M84 X Y E ;Disable all steppers but Z

M82 ;absolute extrusion mode
M104 S0
;End of Gcode
