;FLAVOR:Marlin
;TIME:3052
;Filament used: 1.68353m
;Layer height: 0.2
;MINX:56
;MINY:134.013
;MINZ:0.2
;MAXX:244
;MAXY:165.986
;MAXZ:5
;Generated with Cura_SteamEngine 4.13.1
M140 S50
M105
M190 S50
M104 S200
M105
M109 S200
M82 ;absolute extrusion mode
M201 X500.00 Y500.00 Z100.00 E5000.00 ;Setup machine max acceleration
M203 X500.00 Y500.00 Z10.00 E50.00 ;Setup machine max feedrate
M204 P500.00 R1000.00 T500.00 ;Setup Print/Retract/Travel acceleration
M205 X8.00 Y8.00 Z0.40 E5.00 ;Setup Jerk
M220 S100 ;Reset Feedrate
M221 S100 ;Reset Flowrate

G28 ;Home

G92 E0 ;Reset Extruder
G1 Z2.0 F3000 ;Move Z Axis up
G1 X10.1 Y20 Z0.28 F5000.0 ;Move to start position
G1 X10.1 Y200.0 Z0.28 F1500.0 E15 ;Draw the first line
G1 X10.4 Y200.0 Z0.28 F5000.0 ;Move to side a little
G1 X10.4 Y20 Z0.28 F1500.0 E30 ;Draw the second line
G92 E0 ;Reset Extruder
G1 Z2.0 F3000 ;Move Z Axis up

G92 E0
G92 E0
G1 F2700 E-5
;LAYER_COUNT:25
;LAYER:0
M107
G0 F6000 X62.255 Y135.103 Z0.2
;TYPE:SKIRT
G1 F2700 E0
G1 F1200 X63.117 Y134.734 E0.03119
G1 X64.007 Y134.44 E0.06236
G1 X64.92 Y134.222 E0.09358
G1 X65.847 Y134.084 E0.12475
G1 X66.701 Y134.026 E0.15322
G1 X67.021 Y134.017 E0.16387
G1 X67.33 Y134.013 E0.17415
G1 X232.452 Y134.015 E5.66613
G1 X233.149 Y134.025 E5.68931
G1 X234.085 Y134.079 E5.7205
G1 X235.014 Y134.212 E5.75171
G1 X235.927 Y134.423 E5.78288
G1 X236.82 Y134.712 E5.8141
G1 X237.684 Y135.075 E5.84527
G1 X238.514 Y135.511 E5.87645
G1 X239.305 Y136.016 E5.90766
G1 X240.049 Y136.587 E5.93885
G1 X240.742 Y137.219 E5.97005
G1 X241.379 Y137.908 E6.00126
G1 X241.955 Y138.648 E6.03245
G1 X242.465 Y139.435 E6.06364
G1 X242.907 Y140.262 E6.09483
G1 X243.276 Y141.124 E6.12602
G1 X243.571 Y142.014 E6.1572
G1 X243.789 Y142.926 E6.18839
G1 X243.929 Y143.854 E6.2196
G1 X243.987 Y144.715 E6.2483
G1 X243.996 Y145.035 E6.25895
G1 X244 Y145.344 E6.26923
G1 X243.999 Y154.386 E6.56997
G1 X243.99 Y155.113 E6.59415
G1 X243.939 Y156.05 E6.62536
G1 X243.807 Y156.978 E6.65654
G1 X243.598 Y157.892 E6.68772
G1 X243.311 Y158.785 E6.71892
G1 X242.949 Y159.651 E6.75014
G1 X242.515 Y160.482 E6.78132
G1 X242.011 Y161.273 E6.81252
G1 X241.442 Y162.018 E6.84369
G1 X240.811 Y162.713 E6.87492
G1 X240.124 Y163.351 E6.9061
G1 X239.385 Y163.928 E6.93728
G1 X238.599 Y164.44 E6.96848
G1 X237.773 Y164.883 E6.99966
G1 X236.911 Y165.255 E7.03088
G1 X236.022 Y165.551 E7.06205
G1 X235.11 Y165.771 E7.09325
G1 X234.183 Y165.912 E7.12444
G1 X233.299 Y165.973 E7.15391
G1 X232.978 Y165.982 E7.16459
G1 X232.67 Y165.986 E7.17484
G1 X67.548 Y165.986 E12.66682
G1 X66.862 Y165.976 E12.68963
G1 X65.925 Y165.922 E12.72085
G1 X64.997 Y165.789 E12.75203
G1 X64.083 Y165.577 E12.78324
G1 X63.191 Y165.288 E12.81442
G1 X62.327 Y164.925 E12.84559
G1 X61.496 Y164.488 E12.87682
G1 X60.706 Y163.983 E12.90801
G1 X59.962 Y163.412 E12.9392
G1 X59.269 Y162.78 E12.9704
G1 X58.633 Y162.092 E13.00156
G1 X57.799 Y160.972 E13.048
G1 X57.309 Y160.144 E13.08
G1 X56.902 Y159.299 E13.1112
G1 X56.569 Y158.423 E13.14237
G1 X56.312 Y157.521 E13.17356
G1 X56.132 Y156.6 E13.20478
G1 X56.014 Y155.283 E13.24875
G1 X56.005 Y154.979 E13.25887
G1 X56 Y154.653 E13.26971
G1 X56.001 Y145.523 E13.57338
G1 X56.011 Y144.857 E13.59553
G1 X56.065 Y143.921 E13.62672
G1 X56.199 Y142.992 E13.65793
G1 X56.411 Y142.079 E13.68911
G1 X56.7 Y141.187 E13.7203
G1 X57.065 Y140.322 E13.75152
G1 X57.501 Y139.492 E13.7827
G1 X58.007 Y138.702 E13.81391
G1 X58.578 Y137.958 E13.8451
G1 X59.21 Y137.266 E13.87627
G1 X59.899 Y136.629 E13.90748
G1 X60.64 Y136.054 E13.93868
G1 X61.427 Y135.544 E13.96987
G1 X62.255 Y135.103 E14.00107
G0 F6000 X62.627 Y135.371
G1 F1200 X63.481 Y135.027 E14.03169
G1 X64.361 Y134.758 E14.0623
G1 X65.262 Y134.567 E14.09293
G1 X66.176 Y134.455 E14.12356
G1 X66.712 Y134.426 E14.14141
G1 X67.032 Y134.417 E14.15206
G1 X67.33 Y134.413 E14.16197
G1 X232.446 Y134.415 E19.65375
G1 X233.143 Y134.425 E19.67694
G1 X234.062 Y134.478 E19.70755
G1 X234.973 Y134.611 E19.73817
G1 X235.869 Y134.822 E19.76879
G1 X236.744 Y135.11 E19.79943
G1 X237.59 Y135.474 E19.83006
G1 X238.401 Y135.909 E19.86067
G1 X239.172 Y136.412 E19.89129
G1 X239.896 Y136.981 E19.92192
G1 X240.567 Y137.611 E19.95253
G1 X241.182 Y138.296 E19.98315
G1 X241.735 Y139.032 E20.01377
G1 X242.222 Y139.814 E20.04441
G1 X242.639 Y140.634 E20.075
G1 X242.984 Y141.488 E20.10564
G1 X243.253 Y142.368 E20.13624
G1 X243.445 Y143.269 E20.16689
G1 X243.558 Y144.183 E20.19752
G1 X243.587 Y144.726 E20.2156
G1 X243.596 Y145.046 E20.22625
G1 X243.6 Y145.344 E20.23616
G1 X243.599 Y154.381 E20.53673
G1 X243.59 Y155.108 E20.56092
G1 X243.539 Y156.027 E20.59153
G1 X243.408 Y156.939 E20.62217
G1 X243.198 Y157.835 E20.65278
G1 X242.912 Y158.71 E20.6834
G1 X242.551 Y159.557 E20.71402
G1 X242.117 Y160.369 E20.74465
G1 X241.615 Y161.141 E20.77527
G1 X241.047 Y161.866 E20.80591
G1 X240.419 Y162.539 E20.83652
G1 X239.735 Y163.155 E20.86714
G1 X239 Y163.709 E20.89775
G1 X238.22 Y164.198 E20.92837
G1 X237.4 Y164.617 E20.959
G1 X236.547 Y164.963 E20.98961
G1 X235.667 Y165.234 E21.02024
G1 X234.767 Y165.427 E21.05085
G1 X233.853 Y165.542 E21.08149
G1 X233.288 Y165.573 E21.10031
G1 X232.967 Y165.582 E21.11099
G1 X232.67 Y165.586 E21.12087
G1 X67.553 Y165.586 E26.61269
G1 X66.867 Y165.576 E26.63551
G1 X65.948 Y165.522 E26.66613
G1 X65.037 Y165.39 E26.69674
G1 X64.141 Y165.178 E26.72737
G1 X63.267 Y164.89 E26.75797
G1 X62.421 Y164.526 E26.7886
G1 X61.61 Y164.091 E26.81921
G1 X60.839 Y163.587 E26.84985
G1 X60.116 Y163.018 E26.88045
G1 X59.444 Y162.389 E26.91107
G1 X58.829 Y161.703 E26.94171
G1 X58.121 Y160.734 E26.98162
G1 X57.654 Y159.941 E27.01223
G1 X57.257 Y159.11 E27.04286
G1 X56.933 Y158.248 E27.07349
G1 X56.685 Y157.362 E27.10409
G1 X56.516 Y156.457 E27.13471
G1 X56.414 Y155.271 E27.17431
G1 X56.405 Y154.967 E27.18442
G1 X56.4 Y154.653 E27.19487
G1 X56.401 Y145.529 E27.49833
G1 X56.411 Y144.863 E27.52049
G1 X56.465 Y143.944 E27.55111
G1 X56.598 Y143.033 E27.58173
G1 X56.81 Y142.137 E27.61235
G1 X57.099 Y141.263 E27.64297
G1 X57.463 Y140.417 E27.6736
G1 X57.898 Y139.606 E27.70421
G1 X58.403 Y138.836 E27.73484
G1 X58.972 Y138.112 E27.76546
G1 X59.602 Y137.441 E27.79608
G1 X60.288 Y136.826 E27.82672
G1 X61.024 Y136.274 E27.85732
G1 X61.806 Y135.788 E27.88794
G1 X62.627 Y135.371 E27.91857
G0 F6000 X62.997 Y135.645
G1 F1200 X63.842 Y135.326 E27.94861
G1 X64.712 Y135.084 E27.97864
G1 X65.6 Y134.92 E28.00868
G1 X66.723 Y134.826 E28.04616
G1 X67.043 Y134.817 E28.05681
G1 X67.33 Y134.813 E28.06635
G1 X232.44 Y134.815 E33.55794
G1 X233.137 Y134.825 E33.58112
G1 X234.039 Y134.878 E33.61117
G1 X234.932 Y135.01 E33.6412
G1 X235.81 Y135.221 E33.67123
G1 X236.666 Y135.509 E33.70127
G1 X237.494 Y135.872 E33.73134
G1 X238.285 Y136.306 E33.76135
G1 X239.036 Y136.808 E33.79139
G1 X239.739 Y137.375 E33.82143
G1 X240.389 Y138.002 E33.85147
G1 X240.981 Y138.684 E33.88151
G1 X241.511 Y139.415 E33.91154
G1 X241.973 Y140.191 E33.94158
G1 X242.366 Y141.004 E33.97161
G1 X242.684 Y141.849 E34.00164
G1 X242.927 Y142.719 E34.03168
G1 X243.092 Y143.607 E34.06172
G1 X243.187 Y144.737 E34.09944
G1 X243.196 Y145.057 E34.11009
G1 X243.2 Y145.344 E34.11963
G1 X243.199 Y154.376 E34.42004
G1 X243.19 Y155.103 E34.44422
G1 X243.139 Y156.005 E34.47427
G1 X243.008 Y156.899 E34.50432
G1 X242.799 Y157.777 E34.53434
G1 X242.513 Y158.634 E34.56439
G1 X242.152 Y159.462 E34.59443
G1 X241.72 Y160.254 E34.62444
G1 X241.219 Y161.006 E34.65449
G1 X240.653 Y161.71 E34.68454
G1 X240.028 Y162.361 E34.71455
G1 X239.347 Y162.955 E34.74461
G1 X238.616 Y163.486 E34.77466
G1 X237.842 Y163.95 E34.80467
G1 X237.029 Y164.344 E34.83472
G1 X236.185 Y164.664 E34.86474
G1 X235.315 Y164.909 E34.89481
G1 X234.428 Y165.075 E34.92482
G1 X233.277 Y165.173 E34.96324
G1 X232.956 Y165.182 E34.97392
G1 X232.67 Y165.186 E34.98343
G1 X67.559 Y165.186 E40.47505
G1 X66.873 Y165.176 E40.49787
G1 X65.972 Y165.123 E40.52789
G1 X65.078 Y164.99 E40.55795
G1 X64.2 Y164.779 E40.58798
G1 X63.344 Y164.491 E40.61802
G1 X62.517 Y164.128 E40.64806
G1 X61.726 Y163.694 E40.67807
G1 X60.975 Y163.191 E40.70813
G1 X60.272 Y162.624 E40.73817
G1 X59.622 Y161.997 E40.76821
G1 X59.03 Y161.315 E40.79825
G1 X58.457 Y160.516 E40.83095
G1 X57.999 Y159.738 E40.86098
G1 X57.611 Y158.922 E40.89103
G1 X57.297 Y158.075 E40.92107
G1 X57.06 Y157.204 E40.9511
G1 X56.9 Y156.315 E40.98114
G1 X56.813 Y155.259 E41.01638
G1 X56.804 Y154.955 E41.0265
G1 X56.8 Y154.653 E41.03654
G1 X56.801 Y145.535 E41.33981
G1 X56.811 Y144.869 E41.36196
G1 X56.865 Y143.967 E41.39202
G1 X56.998 Y143.074 E41.42205
G1 X57.209 Y142.196 E41.45208
G1 X57.498 Y141.34 E41.48213
G1 X57.861 Y140.513 E41.51217
G1 X58.295 Y139.722 E41.54218
G1 X58.798 Y138.972 E41.57221
G1 X59.366 Y138.269 E41.60227
G1 X59.993 Y137.619 E41.63231
G1 X60.675 Y137.028 E41.66233
G1 X61.407 Y136.499 E41.69236
G1 X62.183 Y136.036 E41.72242
G1 X62.997 Y135.645 E41.75245
G1 F2700 E36.75245
;MESH:helmholtz3.stl
G0 F6000 X220.119 Y151.821
G0 X220.119 Y153.256
G0 X230.594 Y153.086
;TYPE:WALL-INNER
G1 F2700 E41.75245
G1 F1200 X230.594 Y146.914 E41.95774
G1 X69.402 Y146.913 E47.319
G1 X69.403 Y153.086 E47.52432
G1 X230.594 Y153.086 E52.88555
G0 F6000 X230.194 Y152.686
;TYPE:WALL-OUTER
G1 F1200 X230.194 Y147.314 E53.06423
G1 X69.802 Y147.313 E58.39889
G1 X69.803 Y152.686 E58.57759
G1 X230.194 Y152.686 E63.91222
G1 F2700 E58.91222
G0 F6000 X230.494 Y152.686
G0 X69.562 Y152.885
G0 X69.603 Y154.177
G0 X67.6 Y154.387
;TYPE:WALL-INNER
G1 F2700 E63.91222
G1 F1200 X67.6 Y145.613 E64.20404
G1 X232.4 Y145.614 E69.68531
G1 X232.4 Y154.386 E69.97707
G1 X67.6 Y154.387 E75.45834
G0 F6000 X67.2 Y154.787
;TYPE:WALL-OUTER
G1 F1200 X67.2 Y145.213 E75.77677
G1 X232.8 Y145.214 E81.28465
G1 X232.8 Y154.786 E81.60302
G1 X67.2 Y154.787 E87.1109
G0 F6000 X67.47 Y154.517
G0 X67.71 Y153.997
G0 X67.99 Y153.997
;TYPE:SKIN
G1 F1200 X67.99 Y146.003 E87.37678
G1 X232.01 Y146.004 E92.83211
G1 X232.01 Y153.996 E93.09792
G1 X67.99 Y153.997 E98.55325
G0 F6000 X67.71 Y153.997
G0 X68.641 Y154.193
G0 X69.263 Y154.177
G0 X69.263 Y153.276
G0 X69.013 Y153.476
G1 F1200 X230.984 Y153.476 E103.94043
G1 X230.984 Y146.524 E104.17165
G1 X69.012 Y146.523 E109.55886
G1 X69.013 Y153.476 E109.79012
G0 F6000 X68.417 Y153.836
G1 F1200 X68.15 Y153.568 E109.8027
G0 F6000 X68.15 Y153.003
G1 F1200 X68.983 Y153.836 E109.84188
G0 F6000 X69.348 Y153.635
G1 F1200 X69.548 Y153.836 E109.85131
G0 F6000 X69.914 Y153.635
G1 F1200 X70.114 Y153.836 E109.86074
G0 F6000 X70.48 Y153.635
G1 F1200 X70.68 Y153.836 E109.87018
G0 F6000 X71.045 Y153.635
G1 F1200 X71.245 Y153.836 E109.87961
G0 F6000 X71.611 Y153.635
G1 F1200 X71.811 Y153.836 E109.88904
G0 F6000 X72.177 Y153.635
G1 F1200 X72.377 Y153.836 E109.89847
G0 F6000 X72.742 Y153.635
G1 F1200 X72.943 Y153.836 E109.90792
G0 F6000 X73.308 Y153.635
G1 F1200 X73.508 Y153.836 E109.91735
G0 F6000 X73.874 Y153.635
G1 F1200 X74.074 Y153.836 E109.92678
G0 F6000 X74.439 Y153.635
G1 F1200 X74.64 Y153.836 E109.93624
G0 F6000 X75.005 Y153.635
G1 F1200 X75.205 Y153.836 E109.94567
G0 F6000 X75.571 Y153.635
G1 F1200 X75.771 Y153.836 E109.9551
G0 F6000 X76.137 Y153.635
G1 F1200 X76.337 Y153.836 E109.96453
G0 F6000 X76.702 Y153.635
G1 F1200 X76.902 Y153.836 E109.97396
G0 F6000 X77.268 Y153.635
G1 F1200 X77.468 Y153.836 E109.98339
G0 F6000 X77.834 Y153.635
G1 F1200 X78.034 Y153.836 E109.99282
G0 F6000 X78.399 Y153.635
G1 F1200 X78.599 Y153.836 E110.00226
G0 F6000 X78.965 Y153.635
G1 F1200 X79.165 Y153.836 E110.01169
G0 F6000 X79.531 Y153.635
G1 F1200 X79.731 Y153.836 E110.02112
G0 F6000 X80.096 Y153.635
G1 F1200 X80.296 Y153.836 E110.03055
G0 F6000 X80.662 Y153.635
G1 F1200 X80.862 Y153.836 E110.03998
G0 F6000 X81.228 Y153.635
G1 F1200 X81.428 Y153.836 E110.04941
G0 F6000 X81.793 Y153.635
G1 F1200 X81.993 Y153.836 E110.05884
G0 F6000 X82.359 Y153.635
G1 F1200 X82.559 Y153.836 E110.06827
G0 F6000 X82.925 Y153.635
G1 F1200 X83.125 Y153.836 E110.0777
G0 F6000 X83.49 Y153.635
G1 F1200 X83.691 Y153.836 E110.08716
G0 F6000 X84.056 Y153.635
G1 F1200 X84.256 Y153.836 E110.09659
G0 F6000 X84.622 Y153.635
G1 F1200 X84.822 Y153.836 E110.10602
G0 F6000 X85.187 Y153.635
G1 F1200 X85.388 Y153.836 E110.11547
G0 F6000 X85.753 Y153.635
G1 F1200 X85.953 Y153.836 E110.1249
G0 F6000 X86.319 Y153.635
G1 F1200 X86.519 Y153.836 E110.13434
G0 F6000 X86.885 Y153.635
G1 F1200 X87.085 Y153.836 E110.14377
G0 F6000 X87.45 Y153.635
G1 F1200 X87.65 Y153.836 E110.1532
G0 F6000 X88.016 Y153.635
G1 F1200 X88.216 Y153.836 E110.16263
G0 F6000 X88.582 Y153.635
G1 F1200 X88.782 Y153.836 E110.17206
G0 F6000 X89.147 Y153.635
G1 F1200 X89.347 Y153.836 E110.18149
G0 F6000 X89.713 Y153.635
G1 F1200 X89.913 Y153.836 E110.19092
G0 F6000 X90.279 Y153.635
G1 F1200 X90.479 Y153.836 E110.20035
G0 F6000 X90.844 Y153.635
G1 F1200 X91.044 Y153.836 E110.20978
G0 F6000 X91.41 Y153.635
G1 F1200 X91.61 Y153.836 E110.21921
G0 F6000 X91.976 Y153.635
G1 F1200 X92.176 Y153.836 E110.22864
G0 F6000 X92.541 Y153.635
G1 F1200 X92.742 Y153.836 E110.2381
G0 F6000 X93.107 Y153.635
G1 F1200 X93.307 Y153.836 E110.24753
G0 F6000 X93.673 Y153.635
G1 F1200 X93.873 Y153.836 E110.25696
G0 F6000 X94.238 Y153.635
G1 F1200 X94.439 Y153.836 E110.26642
G0 F6000 X94.804 Y153.635
G1 F1200 X95.004 Y153.836 E110.27585
G0 F6000 X95.37 Y153.635
G1 F1200 X95.57 Y153.836 E110.28528
G0 F6000 X95.936 Y153.635
G1 F1200 X96.136 Y153.836 E110.29471
G0 F6000 X96.501 Y153.635
G1 F1200 X96.701 Y153.836 E110.30414
G0 F6000 X97.067 Y153.635
G1 F1200 X97.267 Y153.836 E110.31357
G0 F6000 X97.633 Y153.635
G1 F1200 X97.833 Y153.836 E110.323
G0 F6000 X98.198 Y153.635
G1 F1200 X98.398 Y153.836 E110.33243
G0 F6000 X98.764 Y153.635
G1 F1200 X98.964 Y153.836 E110.34186
G0 F6000 X99.33 Y153.635
G1 F1200 X99.53 Y153.836 E110.35129
G0 F6000 X99.895 Y153.635
G1 F1200 X100.095 Y153.836 E110.36072
G0 F6000 X100.461 Y153.635
G1 F1200 X100.661 Y153.836 E110.37016
G0 F6000 X101.027 Y153.635
G1 F1200 X101.227 Y153.836 E110.37959
G0 F6000 X101.592 Y153.635
G1 F1200 X101.792 Y153.836 E110.38902
G0 F6000 X102.158 Y153.635
G1 F1200 X102.358 Y153.836 E110.39845
G0 F6000 X102.724 Y153.635
G1 F1200 X102.924 Y153.836 E110.40788
G0 F6000 X103.289 Y153.635
G1 F1200 X103.49 Y153.836 E110.41733
G0 F6000 X103.855 Y153.635
G1 F1200 X104.055 Y153.836 E110.42676
G0 F6000 X104.421 Y153.635
G1 F1200 X104.621 Y153.836 E110.4362
G0 F6000 X104.986 Y153.635
G1 F1200 X105.187 Y153.836 E110.44565
G0 F6000 X105.552 Y153.635
G1 F1200 X105.752 Y153.836 E110.45508
G0 F6000 X106.118 Y153.635
G1 F1200 X106.318 Y153.836 E110.46451
G0 F6000 X106.684 Y153.635
G1 F1200 X106.884 Y153.836 E110.47394
G0 F6000 X107.249 Y153.635
G1 F1200 X107.449 Y153.836 E110.48337
G0 F6000 X107.815 Y153.635
G1 F1200 X108.015 Y153.836 E110.4928
G0 F6000 X108.381 Y153.635
G1 F1200 X108.581 Y153.836 E110.50224
G0 F6000 X108.946 Y153.635
G1 F1200 X109.146 Y153.836 E110.51167
G0 F6000 X109.512 Y153.635
G1 F1200 X109.712 Y153.836 E110.5211
G0 F6000 X110.078 Y153.635
G1 F1200 X110.278 Y153.836 E110.53053
G0 F6000 X110.643 Y153.635
G1 F1200 X110.843 Y153.836 E110.53996
G0 F6000 X111.209 Y153.635
G1 F1200 X111.409 Y153.836 E110.54939
G0 F6000 X111.775 Y153.635
G1 F1200 X111.975 Y153.836 E110.55882
G0 F6000 X112.34 Y153.635
G1 F1200 X112.54 Y153.836 E110.56825
G0 F6000 X112.906 Y153.635
G1 F1200 X113.106 Y153.836 E110.57768
G0 F6000 X113.472 Y153.635
G1 F1200 X113.672 Y153.836 E110.58711
G0 F6000 X114.037 Y153.635
G1 F1200 X114.238 Y153.836 E110.59657
G0 F6000 X114.603 Y153.635
G1 F1200 X114.803 Y153.836 E110.606
G0 F6000 X115.169 Y153.635
G1 F1200 X115.369 Y153.836 E110.61543
G0 F6000 X115.734 Y153.635
G1 F1200 X115.935 Y153.836 E110.62488
G0 F6000 X116.3 Y153.635
G1 F1200 X116.5 Y153.836 E110.63432
G0 F6000 X116.866 Y153.635
G1 F1200 X117.066 Y153.836 E110.64375
G0 F6000 X117.432 Y153.635
G1 F1200 X117.632 Y153.836 E110.65318
G0 F6000 X117.997 Y153.635
G1 F1200 X118.197 Y153.836 E110.66261
G0 F6000 X118.563 Y153.635
G1 F1200 X118.763 Y153.836 E110.67204
G0 F6000 X119.129 Y153.635
G1 F1200 X119.329 Y153.836 E110.68147
G0 F6000 X119.694 Y153.635
G1 F1200 X119.894 Y153.836 E110.6909
G0 F6000 X120.26 Y153.635
G1 F1200 X120.46 Y153.836 E110.70033
