;FLAVOR:Marlin
;TIME:2748
;Filament used: 1.54852m
;Layer height: 0.2
;MINX:59
;MINY:134.113
;MINZ:0.2
;MAXX:241
;MAXY:165.887
;MAXZ:4.8
;Generated with Cura_SteamEngine 4.13.1
M140 S50
M105
M190 S50
M104 S200
M105
M109 S200
M82 ;absolute extrusion mode
M201 X500.00 Y500.00 Z100.00 E5000.00 ;Setup machine max acceleration
M203 X500.00 Y500.00 Z10.00 E50.00 ;Setup machine max feedrate
M204 P500.00 R1000.00 T500.00 ;Setup Print/Retract/Travel acceleration
M205 X8.00 Y8.00 Z0.40 E5.00 ;Setup Jerk
M220 S100 ;Reset Feedrate
M221 S100 ;Reset Flowrate

G28 ;Home

G92 E0 ;Reset Extruder
G1 Z2.0 F3000 ;Move Z Axis up
G1 X10.1 Y20 Z0.28 F5000.0 ;Move to start position
G1 X10.1 Y200.0 Z0.28 F1500.0 E15 ;Draw the first line
G1 X10.4 Y200.0 Z0.28 F5000.0 ;Move to side a little
G1 X10.4 Y20 Z0.28 F1500.0 E30 ;Draw the second line
G92 E0 ;Reset Extruder
G1 Z2.0 F3000 ;Move Z Axis up

G92 E0
G92 E0
G1 F2700 E-5
;LAYER_COUNT:25
;LAYER:0
M107
G0 F6000 X65.238 Y135.212 Z0.2
;TYPE:SKIRT
G1 F2700 E0
G1 F1200 X66.1 Y134.841 E0.03121
G1 X66.99 Y134.546 E0.0624
G1 X67.902 Y134.327 E0.09359
G1 X68.829 Y134.186 E0.12478
G1 X69.701 Y134.127 E0.15385
G1 X70.022 Y134.118 E0.16453
G1 X70.33 Y134.114 E0.17478
G1 X229.292 Y134.113 E5.46187
G1 X230.148 Y134.124 E5.49035
G1 X231.085 Y134.178 E5.52156
G1 X232.013 Y134.31 E5.55274
G1 X232.927 Y134.522 E5.58395
G1 X233.819 Y134.811 E5.61513
G1 X234.684 Y135.174 E5.64633
G1 X235.514 Y135.61 E5.67752
G1 X236.304 Y136.115 E5.7087
G1 X237.049 Y136.686 E5.73992
G1 X237.742 Y137.318 E5.77112
G1 X238.379 Y138.006 E5.8023
G1 X238.954 Y138.747 E5.8335
G1 X239.465 Y139.533 E5.86468
G1 X239.907 Y140.361 E5.89589
G1 X240.276 Y141.222 E5.92705
G1 X240.571 Y142.113 E5.95827
G1 X240.789 Y143.025 E5.98946
G1 X240.929 Y143.952 E6.02064
G1 X240.987 Y144.813 E6.04934
G1 X240.996 Y145.132 E6.05995
G1 X241 Y145.442 E6.07026
G1 X240.999 Y147.044 E6.12355
G1 X240.975 Y148.726 E6.1795
G1 X240.975 Y151.344 E6.26657
G1 X240.998 Y152.478 E6.3043
G1 X241 Y152.701 E6.31171
G1 X240.999 Y154.302 E6.36496
G1 X240.989 Y155.029 E6.38915
G1 X240.936 Y155.966 E6.42036
G1 X240.804 Y156.894 E6.45154
G1 X240.593 Y157.808 E6.48274
G1 X240.304 Y158.7 E6.51392
G1 X239.941 Y159.565 E6.54512
G1 X239.506 Y160.396 E6.57632
G1 X239.001 Y161.186 E6.60751
G1 X238.431 Y161.931 E6.6387
G1 X237.8 Y162.625 E6.6699
G1 X237.111 Y163.262 E6.70111
G1 X236.371 Y163.838 E6.7323
G1 X235.585 Y164.349 E6.76348
G1 X234.758 Y164.791 E6.79467
G1 X233.896 Y165.161 E6.82587
G1 X233.006 Y165.456 E6.85706
G1 X232.094 Y165.675 E6.88825
G1 X231.167 Y165.815 E6.91943
G1 X230.299 Y165.874 E6.94837
G1 X229.979 Y165.883 E6.95902
G1 X229.67 Y165.887 E6.9693
G1 X70.565 Y165.886 E12.26115
G1 X69.867 Y165.877 E12.28437
G1 X68.931 Y165.825 E12.31555
G1 X68.002 Y165.693 E12.34675
G1 X67.088 Y165.483 E12.37795
G1 X66.195 Y165.196 E12.40914
G1 X65.33 Y164.833 E12.44034
G1 X64.499 Y164.399 E12.47153
G1 X63.708 Y163.895 E12.50272
G1 X62.963 Y163.325 E12.53392
G1 X62.269 Y162.694 E12.56512
G1 X61.632 Y162.007 E12.59628
G1 X61.055 Y161.267 E12.62749
G1 X60.543 Y160.481 E12.65869
G1 X60.1 Y159.654 E12.68989
G1 X59.729 Y158.793 E12.72108
G1 X59.433 Y157.903 E12.75227
G1 X59.214 Y156.991 E12.78347
G1 X59.073 Y156.064 E12.81465
G1 X59.013 Y155.175 E12.84429
G1 X59.004 Y154.842 E12.85537
G1 X59 Y154.545 E12.86525
G1 X59.001 Y152.955 E12.91813
G1 X59.025 Y151.245 E12.97501
G1 X59.025 Y148.639 E13.06169
G1 X59.002 Y147.523 E13.09881
G1 X59 Y147.3 E13.10623
G1 X59.001 Y145.645 E13.16128
G1 X59.01 Y144.975 E13.18356
G1 X59.063 Y144.039 E13.21474
G1 X59.195 Y143.11 E13.24595
G1 X59.405 Y142.196 E13.27715
G1 X59.693 Y141.304 E13.30832
G1 X60.056 Y140.439 E13.33952
G1 X60.491 Y139.608 E13.37072
G1 X60.996 Y138.817 E13.40193
G1 X61.566 Y138.073 E13.43311
G1 X62.197 Y137.379 E13.4643
G1 X62.885 Y136.742 E13.49549
G1 X63.625 Y136.165 E13.5267
G1 X64.411 Y135.654 E13.55788
G1 X65.238 Y135.212 E13.58907
G0 F6000 X65.61 Y135.479
G1 F1200 X66.464 Y135.133 E13.61971
G1 X67.344 Y134.863 E13.65033
G1 X68.244 Y134.671 E13.68094
G1 X69.158 Y134.557 E13.71157
G1 X69.712 Y134.527 E13.73003
G1 X70.033 Y134.518 E13.74071
G1 X70.33 Y134.514 E13.75059
G1 X229.292 Y134.513 E19.03768
G1 X230.143 Y134.524 E19.06599
G1 X231.062 Y134.577 E19.09661
G1 X231.973 Y134.71 E19.12723
G1 X232.869 Y134.921 E19.15784
G1 X233.743 Y135.209 E19.18845
G1 X234.589 Y135.572 E19.21907
G1 X235.401 Y136.007 E19.24971
G1 X236.171 Y136.511 E19.28032
G1 X236.895 Y137.08 E19.31094
G1 X237.567 Y137.709 E19.34156
G1 X238.182 Y138.395 E19.3722
G1 X238.735 Y139.131 E19.40282
G1 X239.222 Y139.912 E19.43343
G1 X239.639 Y140.733 E19.46406
G1 X239.984 Y141.587 E19.4947
G1 X240.253 Y142.467 E19.5253
G1 X240.445 Y143.367 E19.55591
G1 X240.558 Y144.281 E19.58654
G1 X240.587 Y144.824 E19.60463
G1 X240.596 Y145.143 E19.61524
G1 X240.6 Y145.442 E19.62519
G1 X240.599 Y147.038 E19.67827
G1 X240.575 Y148.72 E19.73422
G1 X240.575 Y151.352 E19.82176
G1 X240.598 Y152.486 E19.85948
G1 X240.6 Y152.701 E19.86663
G1 X240.599 Y154.297 E19.91972
G1 X240.589 Y155.024 E19.9439
G1 X240.536 Y155.943 E19.97452
G1 X240.404 Y156.854 E20.00513
G1 X240.193 Y157.75 E20.03575
G1 X239.906 Y158.625 E20.06638
G1 X239.543 Y159.471 E20.097
G1 X239.109 Y160.283 E20.12762
G1 X238.605 Y161.054 E20.15826
G1 X238.037 Y161.778 E20.18886
G1 X237.408 Y162.45 E20.21948
G1 X236.723 Y163.065 E20.2501
G1 X235.987 Y163.618 E20.28071
G1 X235.206 Y164.106 E20.31134
G1 X234.386 Y164.524 E20.34196
G1 X233.532 Y164.869 E20.37259
G1 X232.652 Y165.138 E20.4032
G1 X231.751 Y165.331 E20.43384
G1 X230.838 Y165.444 E20.46444
G1 X230.288 Y165.474 E20.48276
G1 X229.968 Y165.483 E20.49341
G1 X229.67 Y165.487 E20.50332
G1 X70.57 Y165.486 E25.79501
G1 X69.872 Y165.477 E25.81823
G1 X68.953 Y165.425 E25.84884
G1 X68.042 Y165.294 E25.87945
G1 X67.146 Y165.084 E25.91006
G1 X66.271 Y164.797 E25.94069
G1 X65.424 Y164.435 E25.97133
G1 X64.612 Y164.001 E26.00195
G1 X63.841 Y163.499 E26.03255
G1 X63.116 Y162.931 E26.06318
G1 X62.443 Y162.302 E26.09382
G1 X61.828 Y161.618 E26.12442
G1 X61.274 Y160.883 E26.15503
G1 X60.786 Y160.102 E26.18566
G1 X60.367 Y159.282 E26.21629
G1 X60.021 Y158.429 E26.2469
G1 X59.751 Y157.549 E26.27752
G1 X59.558 Y156.648 E26.30816
G1 X59.444 Y155.735 E26.33877
G1 X59.413 Y155.164 E26.35779
G1 X59.404 Y154.831 E26.36887
G1 X59.4 Y154.545 E26.37838
G1 X59.401 Y152.961 E26.43106
G1 X59.425 Y151.253 E26.48788
G1 X59.425 Y148.639 E26.57482
G1 X59.402 Y147.515 E26.61221
G1 X59.4 Y147.3 E26.61936
G1 X59.401 Y145.651 E26.67421
G1 X59.41 Y144.981 E26.6965
G1 X59.462 Y144.061 E26.72714
G1 X59.594 Y143.15 E26.75776
G1 X59.805 Y142.254 E26.78838
G1 X60.092 Y141.379 E26.819
G1 X60.454 Y140.533 E26.84961
G1 X60.889 Y139.721 E26.88025
G1 X61.392 Y138.95 E26.91087
G1 X61.96 Y138.226 E26.94147
G1 X62.589 Y137.553 E26.97211
G1 X63.274 Y136.938 E27.00273
G1 X64.009 Y136.384 E27.03334
G1 X64.79 Y135.897 E27.06396
G1 X65.61 Y135.479 E27.09457
G0 F6000 X65.981 Y135.752
G1 F1200 X66.826 Y135.432 E27.12462
G1 X67.695 Y135.189 E27.15463
G1 X68.583 Y135.023 E27.18468
G1 X69.723 Y134.927 E27.22273
G1 X70.044 Y134.918 E27.23341
G1 X70.33 Y134.914 E27.24292
G1 X229.292 Y134.913 E32.53002
G1 X230.137 Y134.924 E32.55813
G1 X231.038 Y134.977 E32.58815
G1 X231.932 Y135.109 E32.6182
G1 X232.81 Y135.32 E32.64824
G1 X233.666 Y135.608 E32.67828
G1 X234.493 Y135.97 E32.7083
G1 X235.285 Y136.404 E32.73834
G1 X236.036 Y136.907 E32.7684
G1 X236.739 Y137.474 E32.79844
G1 X237.389 Y138.101 E32.82848
G1 X237.981 Y138.783 E32.85852
G1 X238.51 Y139.514 E32.88853
G1 X238.973 Y140.29 E32.91859
G1 X239.365 Y141.103 E32.9486
G1 X239.684 Y141.948 E32.97865
G1 X239.927 Y142.818 E33.00869
G1 X240.092 Y143.706 E33.03873
G1 X240.187 Y144.835 E33.07641
G1 X240.196 Y145.154 E33.08703
G1 X240.2 Y145.442 E33.09661
G1 X240.199 Y147.033 E33.14952
G1 X240.175 Y148.715 E33.20547
G1 X240.175 Y151.36 E33.29345
G1 X240.198 Y152.494 E33.33117
G1 X240.2 Y152.701 E33.33806
G1 X240.199 Y154.291 E33.39094
G1 X240.189 Y155.018 E33.41512
G1 X240.137 Y155.92 E33.44517
G1 X240.005 Y156.813 E33.4752
G1 X239.794 Y157.692 E33.50526
G1 X239.507 Y158.548 E33.53529
G1 X239.145 Y159.375 E33.56532
G1 X238.711 Y160.167 E33.59536
G1 X238.209 Y160.918 E33.6254
G1 X237.643 Y161.621 E33.65542
G1 X237.016 Y162.272 E33.68548
G1 X236.335 Y162.864 E33.71549
G1 X235.604 Y163.394 E33.74552
G1 X234.828 Y163.857 E33.77558
G1 X234.015 Y164.25 E33.80561
G1 X233.17 Y164.57 E33.83567
G1 X232.301 Y164.813 E33.86568
G1 X231.413 Y164.978 E33.89572
G1 X230.277 Y165.074 E33.93364
G1 X229.957 Y165.083 E33.94428
G1 X229.67 Y165.087 E33.95383
G1 X70.575 Y165.086 E39.24535
G1 X69.877 Y165.077 E39.26857
G1 X68.976 Y165.026 E39.29858
G1 X68.082 Y164.894 E39.32864
G1 X67.204 Y164.685 E39.35866
G1 X66.347 Y164.398 E39.38872
G1 X65.52 Y164.037 E39.41873
G1 X64.727 Y163.604 E39.44878
G1 X63.976 Y163.103 E39.47881
G1 X63.272 Y162.537 E39.50885
G1 X62.621 Y161.911 E39.53889
G1 X62.028 Y161.23 E39.56893
G1 X61.498 Y160.499 E39.59896
G1 X61.034 Y159.724 E39.629
G1 X60.64 Y158.911 E39.65905
G1 X60.32 Y158.067 E39.68907
G1 X60.076 Y157.197 E39.71912
G1 X59.91 Y156.309 E39.74917
G1 X59.813 Y155.154 E39.78772
G1 X59.804 Y154.821 E39.7988
G1 X59.8 Y154.545 E39.80798
G1 X59.801 Y152.966 E39.8605
G1 X59.825 Y151.261 E39.91721
G1 X59.825 Y148.639 E40.00442
G1 X59.802 Y147.507 E40.04208
G1 X59.8 Y147.3 E40.04896
G1 X59.801 Y145.656 E40.10364
G1 X59.81 Y144.986 E40.12593
G1 X59.862 Y144.084 E40.15598
G1 X59.994 Y143.191 E40.186
G1 X60.204 Y142.313 E40.21603
G1 X60.491 Y141.456 E40.24609
G1 X60.852 Y140.629 E40.2761
G1 X61.286 Y139.836 E40.30617
G1 X61.788 Y139.086 E40.33619
G1 X62.354 Y138.382 E40.36623
G1 X62.98 Y137.731 E40.39627
G1 X63.662 Y137.139 E40.42631
G1 X64.393 Y136.608 E40.45636
G1 X65.168 Y136.145 E40.48638
G1 X65.981 Y135.752 E40.51642
G1 F2700 E35.51642
;MESH:helmholtz.stl
G0 F6000 X69.347 Y148.266
G0 X70.42 Y151.721
G0 X70.42 Y152.806
G0 X229.218 Y153.169
G0 X229.4 Y154.287
;TYPE:WALL-INNER
G1 F2700 E40.51642
G1 F1200 X70.6 Y154.287 E45.79813
G1 X70.6 Y152.986 E45.8414
G1 X229.4 Y152.987 E51.12311
G1 X229.4 Y154.287 E51.16635
G0 F6000 X229.8 Y154.687
;TYPE:WALL-OUTER
G1 F1200 X70.2 Y154.687 E56.47466
G1 X70.2 Y152.586 E56.54454
G1 X229.8 Y152.587 E61.85286
G1 X229.8 Y154.687 E61.92271
G0 F6000 X229.53 Y154.417
G0 X229.29 Y153.897
G0 X229.01 Y153.897
;TYPE:SKIN
G1 F1200 X70.99 Y153.897 E67.17847
G1 X70.99 Y153.376 E67.1958
G1 X229.01 Y153.377 E72.45157
G1 X229.01 Y153.897 E72.46887
G0 F6000 X228.849 Y153.613
G1 F1200 X228.773 Y153.536 E72.47246
G0 F6000 X228.406 Y153.736
G1 F1200 X228.207 Y153.536 E72.48185
G0 F6000 X227.841 Y153.736
G1 F1200 X227.641 Y153.536 E72.49125
G0 F6000 X227.275 Y153.736
G1 F1200 X227.076 Y153.536 E72.50064
G0 F6000 X226.709 Y153.736
G1 F1200 X226.51 Y153.536 E72.51002
G0 F6000 X226.144 Y153.736
G1 F1200 X225.944 Y153.536 E72.51943
G0 F6000 X225.578 Y153.736
G1 F1200 X225.378 Y153.536 E72.52884
G0 F6000 X225.012 Y153.736
G1 F1200 X224.813 Y153.536 E72.53822
G0 F6000 X224.447 Y153.736
G1 F1200 X224.247 Y153.536 E72.54763
G0 F6000 X223.881 Y153.736
G1 F1200 X223.681 Y153.536 E72.55704
G0 F6000 X223.315 Y153.736
G1 F1200 X223.116 Y153.536 E72.56642
G0 F6000 X222.749 Y153.736
G1 F1200 X222.55 Y153.536 E72.5758
G0 F6000 X222.184 Y153.736
G1 F1200 X221.984 Y153.536 E72.58521
G0 F6000 X221.618 Y153.736
G1 F1200 X221.419 Y153.536 E72.5946
G0 F6000 X221.052 Y153.736
G1 F1200 X220.853 Y153.536 E72.60398
G0 F6000 X220.487 Y153.736
G1 F1200 X220.287 Y153.536 E72.61339
G0 F6000 X219.921 Y153.736
G1 F1200 X219.722 Y153.536 E72.62277
G0 F6000 X219.355 Y153.736
G1 F1200 X219.156 Y153.536 E72.63215
G0 F6000 X218.79 Y153.736
G1 F1200 X218.59 Y153.536 E72.64156
G0 F6000 X218.224 Y153.736
G1 F1200 X218.025 Y153.536 E72.65095
G0 F6000 X217.658 Y153.736
G1 F1200 X217.459 Y153.536 E72.66033
G0 F6000 X217.093 Y153.736
G1 F1200 X216.893 Y153.536 E72.66974
G0 F6000 X216.527 Y153.736
G1 F1200 X216.328 Y153.536 E72.67912
G0 F6000 X215.961 Y153.736
G1 F1200 X215.762 Y153.536 E72.6885
G0 F6000 X215.396 Y153.736
G1 F1200 X215.196 Y153.536 E72.69791
G0 F6000 X214.83 Y153.736
G1 F1200 X214.63 Y153.536 E72.70732
G0 F6000 X214.264 Y153.736
G1 F1200 X214.065 Y153.536 E72.7167
G0 F6000 X213.698 Y153.736
G1 F1200 X213.499 Y153.536 E72.72609
G0 F6000 X213.133 Y153.736
G1 F1200 X212.933 Y153.536 E72.73549
G0 F6000 X212.567 Y153.736
G1 F1200 X212.368 Y153.536 E72.74488
G0 F6000 X212.001 Y153.736
G1 F1200 X211.802 Y153.536 E72.75426
G0 F6000 X211.436 Y153.736
G1 F1200 X211.236 Y153.536 E72.76367
G0 F6000 X210.87 Y153.736
G1 F1200 X210.671 Y153.536 E72.77305
G0 F6000 X210.304 Y153.736
G1 F1200 X210.105 Y153.536 E72.78244
G0 F6000 X209.739 Y153.736
G1 F1200 X209.539 Y153.536 E72.79184
G0 F6000 X209.173 Y153.736
G1 F1200 X208.974 Y153.536 E72.80123
G0 F6000 X208.607 Y153.736
G1 F1200 X208.408 Y153.536 E72.81061
G0 F6000 X208.042 Y153.736
G1 F1200 X207.842 Y153.536 E72.82002
G0 F6000 X207.476 Y153.736
G1 F1200 X207.277 Y153.536 E72.8294
G0 F6000 X206.91 Y153.736
G1 F1200 X206.711 Y153.536 E72.83879
G0 F6000 X206.345 Y153.736
G1 F1200 X206.145 Y153.536 E72.8482
G0 F6000 X205.779 Y153.736
G1 F1200 X205.579 Y153.536 E72.8576
G0 F6000 X205.213 Y153.736
G1 F1200 X205.014 Y153.536 E72.86699
G0 F6000 X204.648 Y153.736
G1 F1200 X204.448 Y153.536 E72.87639
G0 F6000 X204.082 Y153.736
G1 F1200 X203.882 Y153.536 E72.8858
G0 F6000 X203.516 Y153.736
G1 F1200 X203.317 Y153.536 E72.89519
G0 F6000 X202.95 Y153.736
G1 F1200 X202.751 Y153.536 E72.90457
G0 F6000 X202.385 Y153.736
G1 F1200 X202.185 Y153.536 E72.91398
G0 F6000 X201.819 Y153.736
G1 F1200 X201.62 Y153.536 E72.92336
G0 F6000 X201.253 Y153.736
G1 F1200 X201.054 Y153.536 E72.93274
G0 F6000 X200.688 Y153.736
G1 F1200 X200.488 Y153.536 E72.94215
G0 F6000 X200.122 Y153.736
G1 F1200 X199.923 Y153.536 E72.95154
G0 F6000 X199.556 Y153.736
G1 F1200 X199.357 Y153.536 E72.96092
G0 F6000 X198.991 Y153.736
G1 F1200 X198.791 Y153.536 E72.97033
G0 F6000 X198.425 Y153.736
G1 F1200 X198.226 Y153.536 E72.97971
G0 F6000 X197.859 Y153.736
G1 F1200 X197.66 Y153.536 E72.98909
G0 F6000 X197.294 Y153.736
G1 F1200 X197.094 Y153.536 E72.9985
G0 F6000 X196.728 Y153.736
G1 F1200 X196.529 Y153.536 E73.00789
G0 F6000 X196.162 Y153.736
G1 F1200 X195.963 Y153.536 E73.01727
G0 F6000 X195.597 Y153.736
G1 F1200 X195.397 Y153.536 E73.02668
G0 F6000 X195.031 Y153.736
G1 F1200 X194.831 Y153.536 E73.03608
G0 F6000 X194.465 Y153.736
G1 F1200 X194.266 Y153.536 E73.04547
G0 F6000 X193.899 Y153.736
G1 F1200 X193.7 Y153.536 E73.05485
G0 F6000 X193.334 Y153.736
G1 F1200 X193.134 Y153.536 E73.06426
G0 F6000 X192.768 Y153.736
G1 F1200 X192.569 Y153.536 E73.07364
G0 F6000 X192.202 Y153.736
G1 F1200 X192.003 Y153.536 E73.08303
G0 F6000 X191.637 Y153.736
G1 F1200 X191.437 Y153.536 E73.09243
G0 F6000 X191.071 Y153.736
G1 F1200 X190.872 Y153.536 E73.10182
G0 F6000 X190.505 Y153.736
G1 F1200 X190.306 Y153.536 E73.1112
G0 F6000 X189.94 Y153.736
G1 F1200 X189.74 Y153.536 E73.12061
G0 F6000 X189.374 Y153.736
G1 F1200 X189.175 Y153.536 E73.12999
G0 F6000 X188.808 Y153.736
G1 F1200 X188.609 Y153.536 E73.13938
G0 F6000 X188.243 Y153.736
G1 F1200 X188.043 Y153.536 E73.14879
G0 F6000 X187.677 Y153.736
G1 F1200 X187.478 Y153.536 E73.15817
G0 F6000 X187.111 Y153.736
G1 F1200 X186.912 Y153.536 E73.16755
G0 F6000 X186.546 Y153.736
G1 F1200 X186.346 Y153.536 E73.17696
G0 F6000 X185.98 Y153.736
G1 F1200 X185.78 Y153.536 E73.18637
G0 F6000 X185.414 Y153.736
G1 F1200 X185.215 Y153.536 E73.19575
G0 F6000 X184.849 Y153.736
G1 F1200 X184.649 Y153.536 E73.20516
G0 F6000 X184.283 Y153.736
G1 F1200 X184.083 Y153.536 E73.21457
G0 F6000 X183.717 Y153.736
G1 F1200 X183.518 Y153.536 E73.22395
G0 F6000 X183.151 Y153.736
G1 F1200 X182.952 Y153.536 E73.23333
G0 F6000 X182.586 Y153.736
G1 F1200 X182.386 Y153.536 E73.24274
G0 F6000 X182.02 Y153.736
G1 F1200 X181.821 Y153.536 E73.25213
G0 F6000 X181.454 Y153.736
G1 F1200 X181.255 Y153.536 E73.26151
G0 F6000 X180.889 Y153.736
G1 F1200 X180.689 Y153.536 E73.27092
G0 F6000 X180.323 Y153.736
G1 F1200 X180.124 Y153.536 E73.2803
G0 F6000 X179.757 Y153.736
G1 F1200 X179.558 Y153.536 E73.28968
