;FLAVOR:Marlin
;TIME:1751
;Filament used: 1.08262m
;Layer height: 0.2
;MINX:84.75
;MINY:134.013
;MINZ:0.2
;MAXX:215.25
;MAXY:165.986
;MAXZ:5
;Generated with Cura_SteamEngine 4.13.1
M140 S50
M105
M190 S50
M104 S200
M105
M109 S200
M82 ;absolute extrusion mode
M201 X500.00 Y500.00 Z100.00 E5000.00 ;Setup machine max acceleration
M203 X500.00 Y500.00 Z10.00 E50.00 ;Setup machine max feedrate
M204 P500.00 R1000.00 T500.00 ;Setup Print/Retract/Travel acceleration
M205 X8.00 Y8.00 Z0.40 E5.00 ;Setup Jerk
M220 S100 ;Reset Feedrate
M221 S100 ;Reset Flowrate

G28 ;Home

G92 E0 ;Reset Extruder
G1 Z2.0 F3000 ;Move Z Axis up
G1 X10.1 Y20 Z0.28 F5000.0 ;Move to start position
G1 X10.1 Y200.0 Z0.28 F1500.0 E15 ;Draw the first line
G1 X10.4 Y200.0 Z0.28 F5000.0 ;Move to side a little
G1 X10.4 Y20 Z0.28 F1500.0 E30 ;Draw the second line
G92 E0 ;Reset Extruder
G1 Z2.0 F3000 ;Move Z Axis up

G92 E0
G92 E0
G1 F2700 E-5
;LAYER_COUNT:25
;LAYER:0
M107
G0 F6000 X89.373 Y136.066 Z0.2
;TYPE:SKIRT
G1 F2700 E0
G1 F1200 X90.159 Y135.555 E0.03118
G1 X90.986 Y135.112 E0.06239
G1 X91.848 Y134.742 E0.09359
G1 X92.738 Y134.446 E0.12478
G1 X93.65 Y134.227 E0.15598
G1 X94.577 Y134.087 E0.18716
G1 X95.451 Y134.027 E0.2163
G1 X95.772 Y134.018 E0.22698
G1 X96.08 Y134.014 E0.23722
G1 X203.542 Y134.013 E3.81142
G1 X204.398 Y134.024 E3.8399
G1 X205.335 Y134.078 E3.87111
G1 X206.263 Y134.21 E3.90229
G1 X207.177 Y134.422 E3.93349
G1 X208.069 Y134.711 E3.96468
G1 X208.934 Y135.074 E3.99588
G1 X209.764 Y135.51 E4.02706
G1 X210.554 Y136.015 E4.05825
G1 X211.299 Y136.586 E4.08947
G1 X211.992 Y137.218 E4.12066
G1 X212.629 Y137.906 E4.15185
G1 X213.204 Y138.647 E4.18305
G1 X213.715 Y139.433 E4.21423
G1 X214.157 Y140.261 E4.24544
G1 X214.526 Y141.122 E4.2766
G1 X214.821 Y142.013 E4.30782
G1 X215.039 Y142.925 E4.33901
G1 X215.179 Y143.852 E4.37019
G1 X215.237 Y144.713 E4.39889
G1 X215.246 Y145.032 E4.4095
G1 X215.25 Y145.342 E4.41981
G1 X215.249 Y146.45 E4.45667
G1 X215.22 Y148.467 E4.52376
G1 X215.21 Y148.822 E4.53557
G1 X215.208 Y151.38 E4.62065
G1 X215.237 Y152.729 E4.66553
G1 X215.245 Y153.001 E4.67458
G1 X215.25 Y153.324 E4.68532
G1 X215.249 Y154.401 E4.72115
G1 X215.239 Y155.128 E4.74533
G1 X215.186 Y156.065 E4.77654
G1 X215.054 Y156.993 E4.80772
G1 X214.843 Y157.907 E4.83892
G1 X214.554 Y158.799 E4.8701
G1 X214.191 Y159.664 E4.9013
G1 X213.756 Y160.495 E4.9325
G1 X213.251 Y161.285 E4.96369
G1 X212.681 Y162.03 E4.99489
G1 X212.05 Y162.724 E5.02608
G1 X211.361 Y163.361 E5.05729
G1 X210.621 Y163.937 E5.08848
G1 X209.835 Y164.448 E5.11966
G1 X209.008 Y164.89 E5.15085
G1 X208.146 Y165.26 E5.18205
G1 X207.256 Y165.555 E5.21324
G1 X206.344 Y165.774 E5.24443
G1 X205.417 Y165.914 E5.27561
G1 X204.549 Y165.973 E5.30455
G1 X204.229 Y165.982 E5.3152
G1 X203.92 Y165.986 E5.32548
G1 X96.316 Y165.986 E8.9044
G1 X95.617 Y165.977 E8.92765
G1 X94.681 Y165.925 E8.95883
G1 X93.752 Y165.793 E8.99004
G1 X92.838 Y165.583 E9.02123
G1 X91.946 Y165.296 E9.0524
G1 X91.081 Y164.934 E9.08359
G1 X90.25 Y164.499 E9.11478
G1 X89.459 Y163.995 E9.14598
G1 X88.713 Y163.425 E9.1772
G1 X88.019 Y162.795 E9.20838
G1 X87.382 Y162.107 E9.23956
G1 X86.805 Y161.367 E9.27077
G1 X86.293 Y160.581 E9.30197
G1 X85.85 Y159.755 E9.33315
G1 X85.479 Y158.893 E9.36436
G1 X85.183 Y158.003 E9.39556
G1 X84.964 Y157.091 E9.42675
G1 X84.823 Y156.164 E9.45794
G1 X84.763 Y155.282 E9.48734
G1 X84.754 Y154.957 E9.49816
G1 X84.75 Y154.653 E9.50827
G1 X84.751 Y153.501 E9.54658
G1 X84.78 Y151.542 E9.61175
G1 X84.791 Y151.156 E9.62459
G1 X84.791 Y148.598 E9.70967
G1 X84.763 Y147.286 E9.75332
G1 X84.755 Y147.015 E9.76233
G1 X84.75 Y146.69 E9.77315
G1 X84.751 Y145.555 E9.8109
G1 X84.76 Y144.877 E9.83345
G1 X84.812 Y143.941 E9.86463
G1 X84.944 Y143.012 E9.89584
G1 X85.155 Y142.098 E9.92704
G1 X85.443 Y141.205 E9.95824
G1 X85.805 Y140.341 E9.9894
G1 X86.24 Y139.51 E10.0206
G1 X86.745 Y138.719 E10.05181
G1 X87.314 Y137.974 E10.08299
G1 X87.946 Y137.28 E10.11421
G1 X88.634 Y136.643 E10.1454
G1 X89.373 Y136.066 E10.17658
G0 F6000 X89.758 Y136.285
G1 F1200 X90.539 Y135.798 E10.20719
G1 X91.359 Y135.379 E10.23782
G1 X92.212 Y135.034 E10.26842
G1 X93.092 Y134.764 E10.29904
G1 X93.993 Y134.571 E10.32969
G1 X94.906 Y134.457 E10.36029
G1 X95.462 Y134.427 E10.37881
G1 X95.783 Y134.418 E10.38949
G1 X96.08 Y134.414 E10.39937
G1 X203.542 Y134.413 E13.97357
G1 X204.393 Y134.424 E14.00187
G1 X205.312 Y134.477 E14.03249
G1 X206.223 Y134.61 E14.06311
G1 X207.119 Y134.821 E14.09373
G1 X207.993 Y135.109 E14.12434
G1 X208.839 Y135.472 E14.15495
G1 X209.651 Y135.907 E14.18559
G1 X210.421 Y136.411 E14.2162
G1 X211.145 Y136.98 E14.24683
G1 X211.817 Y137.609 E14.27744
G1 X212.432 Y138.295 E14.30809
G1 X212.985 Y139.031 E14.33871
G1 X213.472 Y139.812 E14.36932
G1 X213.889 Y140.633 E14.39994
G1 X214.234 Y141.487 E14.43058
G1 X214.503 Y142.367 E14.46119
G1 X214.695 Y143.267 E14.49179
G1 X214.808 Y144.181 E14.52242
G1 X214.837 Y144.724 E14.54051
G1 X214.846 Y145.043 E14.55112
G1 X214.85 Y145.342 E14.56107
G1 X214.849 Y146.444 E14.59772
G1 X214.82 Y148.455 E14.66462
G1 X214.81 Y148.81 E14.67643
G1 X214.808 Y151.33 E14.76024
G1 X214.85 Y153.324 E14.82658
G1 X214.849 Y154.396 E14.86223
G1 X214.839 Y155.123 E14.88642
G1 X214.786 Y156.042 E14.91703
G1 X214.654 Y156.953 E14.94765
G1 X214.443 Y157.849 E14.97827
G1 X214.156 Y158.724 E15.00889
G1 X213.793 Y159.57 E15.03951
G1 X213.359 Y160.382 E15.07014
G1 X212.855 Y161.153 E15.10077
G1 X212.287 Y161.877 E15.13138
G1 X211.658 Y162.549 E15.16199
G1 X210.973 Y163.164 E15.19261
G1 X210.237 Y163.717 E15.22323
G1 X209.456 Y164.205 E15.25386
G1 X208.636 Y164.623 E15.28447
G1 X207.782 Y164.968 E15.31511
G1 X206.902 Y165.237 E15.34571
G1 X206.001 Y165.43 E15.37636
G1 X205.088 Y165.543 E15.40696
G1 X204.538 Y165.573 E15.42528
G1 X204.218 Y165.582 E15.43593
G1 X203.92 Y165.586 E15.44584
G1 X96.322 Y165.586 E19.02456
G1 X95.623 Y165.577 E19.04781
G1 X94.703 Y165.525 E19.07846
G1 X93.792 Y165.394 E19.10907
G1 X92.896 Y165.184 E19.13968
G1 X92.021 Y164.897 E19.17031
G1 X91.174 Y164.535 E19.20095
G1 X90.362 Y164.101 E19.23157
G1 X89.591 Y163.599 E19.26217
G1 X88.866 Y163.031 E19.2928
G1 X88.193 Y162.402 E19.32344
G1 X87.578 Y161.718 E19.35403
G1 X87.024 Y160.983 E19.38465
G1 X86.536 Y160.202 E19.41528
G1 X86.117 Y159.382 E19.4459
G1 X85.771 Y158.529 E19.47652
G1 X85.501 Y157.649 E19.50714
G1 X85.308 Y156.749 E19.53775
G1 X85.194 Y155.835 E19.56839
G1 X85.163 Y155.271 E19.58717
G1 X85.154 Y154.946 E19.59799
G1 X85.15 Y154.653 E19.60773
G1 X85.151 Y153.507 E19.64585
G1 X85.18 Y151.554 E19.71081
G1 X85.191 Y151.168 E19.72366
G1 X85.191 Y148.636 E19.80787
G1 X85.15 Y146.69 E19.87261
G1 X85.151 Y145.56 E19.91019
G1 X85.16 Y144.882 E19.93275
G1 X85.212 Y143.963 E19.96336
G1 X85.344 Y143.052 E19.99398
G1 X85.554 Y142.156 E20.02459
G1 X85.841 Y141.281 E20.05521
G1 X86.204 Y140.435 E20.08583
G1 X86.638 Y139.623 E20.11646
G1 X87.141 Y138.852 E20.14707
G1 X87.709 Y138.127 E20.17771
G1 X88.338 Y137.455 E20.20832
G1 X89.022 Y136.839 E20.23894
G1 X89.758 Y136.285 E20.26958
G0 F6000 X90.141 Y136.509
G1 F1200 X90.916 Y136.046 E20.2996
G1 X91.729 Y135.653 E20.32964
G1 X92.574 Y135.333 E20.35969
G1 X93.444 Y135.089 E20.38974
G1 X94.331 Y134.923 E20.41976
G1 X95.473 Y134.827 E20.45787
G1 X95.794 Y134.818 E20.46855
G1 X96.08 Y134.814 E20.47807
G1 X203.542 Y134.813 E24.05227
G1 X204.387 Y134.824 E24.08038
G1 X205.288 Y134.877 E24.11039
G1 X206.182 Y135.009 E24.14045
G1 X207.06 Y135.22 E24.17049
G1 X207.916 Y135.508 E24.20052
G1 X208.743 Y135.87 E24.23055
G1 X209.535 Y136.304 E24.26059
G1 X210.286 Y136.807 E24.29065
G1 X210.989 Y137.374 E24.32069
G1 X211.639 Y138.001 E24.35073
G1 X212.231 Y138.683 E24.38077
G1 X212.76 Y139.414 E24.41078
G1 X213.223 Y140.19 E24.44083
G1 X213.615 Y141.003 E24.47085
G1 X213.934 Y141.848 E24.50089
G1 X214.177 Y142.718 E24.53094
G1 X214.342 Y143.606 E24.56098
G1 X214.437 Y144.735 E24.59866
G1 X214.446 Y145.054 E24.60927
G1 X214.45 Y145.342 E24.61885
G1 X214.449 Y146.439 E24.65534
G1 X214.42 Y148.444 E24.72203
G1 X214.41 Y148.798 E24.73381
G1 X214.408 Y151.33 E24.81803
G1 X214.438 Y152.752 E24.86533
G1 X214.446 Y153.024 E24.87438
G1 X214.45 Y153.324 E24.88436
G1 X214.449 Y154.39 E24.91982
G1 X214.439 Y155.117 E24.944
G1 X214.387 Y156.019 E24.97405
G1 X214.255 Y156.912 E25.00408
G1 X214.044 Y157.791 E25.03414
G1 X213.757 Y158.647 E25.06417
G1 X213.395 Y159.474 E25.0942
G1 X212.961 Y160.266 E25.12423
G1 X212.459 Y161.017 E25.15428
G1 X211.893 Y161.72 E25.1843
G1 X211.266 Y162.371 E25.21436
G1 X210.585 Y162.963 E25.24437
G1 X209.854 Y163.493 E25.2744
G1 X209.078 Y163.956 E25.30446
G1 X208.265 Y164.349 E25.33449
G1 X207.42 Y164.669 E25.36454
G1 X206.551 Y164.912 E25.39456
G1 X205.663 Y165.077 E25.4246
G1 X204.527 Y165.173 E25.46251
G1 X204.207 Y165.182 E25.47316
G1 X203.92 Y165.186 E25.48271
G1 X96.327 Y165.186 E29.06127
G1 X95.628 Y165.177 E29.08452
G1 X94.726 Y165.126 E29.11457
G1 X93.833 Y164.994 E29.14459
G1 X92.954 Y164.785 E29.17464
G1 X92.098 Y164.498 E29.20467
G1 X91.27 Y164.137 E29.23471
G1 X90.477 Y163.704 E29.26476
G1 X89.726 Y163.203 E29.29479
G1 X89.022 Y162.637 E29.32483
G1 X88.371 Y162.011 E29.35487
G1 X87.778 Y161.33 E29.38491
G1 X87.248 Y160.599 E29.41494
G1 X86.784 Y159.824 E29.44498
G1 X86.39 Y159.011 E29.47503
G1 X86.07 Y158.167 E29.50505
G1 X85.826 Y157.297 E29.5351
G1 X85.66 Y156.41 E29.56512
G1 X85.563 Y155.26 E29.6035
G1 X85.554 Y154.935 E29.61432
G1 X85.55 Y154.653 E29.6237
G1 X85.551 Y153.513 E29.66161
G1 X85.58 Y151.565 E29.72641
G1 X85.591 Y151.179 E29.73925
G1 X85.591 Y148.627 E29.82413
G1 X85.56 Y147.179 E29.87231
G1 X85.554 Y146.991 E29.87856
G1 X85.55 Y146.69 E29.88857
G1 X85.551 Y145.566 E29.92596
G1 X85.56 Y144.888 E29.94851
G1 X85.612 Y143.986 E29.97856
G1 X85.743 Y143.093 E30.00858
G1 X85.953 Y142.214 E30.03864
G1 X86.24 Y141.358 E30.06867
G1 X86.602 Y140.53 E30.09872
G1 X87.035 Y139.738 E30.12875
G1 X87.537 Y138.987 E30.15879
G1 X88.103 Y138.283 E30.18883
G1 X88.729 Y137.633 E30.21885
G1 X89.41 Y137.04 E30.24888
G1 X90.141 Y136.509 E30.27893
G1 F2700 E25.27893
;MESH:helmholtz_test.stl
G0 F6000 X96.164 Y152.319
G0 X96.164 Y153.398
G0 X96.35 Y154.387
;TYPE:WALL-INNER
G1 F2700 E30.27893
G1 F1200 X96.35 Y153.584 E30.30564
G1 X203.65 Y153.584 E33.87445
G1 X203.65 Y154.386 E33.90113
G1 X96.35 Y154.387 E37.46994
G0 F6000 X95.95 Y154.787
;TYPE:WALL-OUTER
G1 F1200 X95.95 Y153.184 E37.52326
G1 X204.05 Y153.184 E41.11868
G1 X204.05 Y154.786 E41.17196
G1 X95.95 Y154.787 E44.76738
G0 F6000 X96.22 Y154.517
G0 X96.46 Y153.997
G0 X96.74 Y153.997
;TYPE:SKIN
G1 F1200 X96.74 Y153.974 E44.76815
G1 X203.26 Y153.974 E48.31102
G1 X203.26 Y153.996 E48.31175
G1 X96.74 Y153.997 E51.85462
G0 F6000 X96.55 Y153.997
G1 F2700 E46.85462
G0 F6000 X96.46 Y153.997
G0 X203.65 Y153.404
G0 X203.65 Y152.319
G0 X203.651 Y147.691
G0 X203.65 Y146.606
G0 X203.65 Y146.426
;TYPE:WALL-INNER
G1 F2700 E51.85462
G1 F1200 X96.35 Y146.426 E55.42343
G1 X96.35 Y145.614 E55.45044
G1 X203.65 Y145.613 E59.01925
G1 X203.65 Y146.426 E59.04629
G0 F6000 X204.05 Y146.826
;TYPE:WALL-OUTER
G1 F1200 X95.95 Y146.826 E62.64171
G1 X95.95 Y145.214 E62.69533
G1 X204.05 Y145.213 E66.29075
G1 X204.05 Y146.826 E66.3444
G0 F6000 X203.78 Y146.556
G0 X203.26 Y146.316
G0 X203.26 Y146.036
;TYPE:SKIN
G1 F1200 X96.74 Y146.036 E69.88726
G1 X96.74 Y146.004 E69.88833
G1 X203.26 Y146.003 E73.4312
G1 X203.26 Y146.036 E73.4323
G0 F6000 X203.26 Y146.226
G1 F2700 E68.4323
;MESH:NONMESH
G0 F300 X203.26 Y146.226 Z0.4
G0 F6000 X203.26 Y146.316
G0 X96.35 Y146.606
G0 X96.35 Y147.692
G0 X96.35 Y152.319
G0 X96.35 Y153.404
G0 X96.35 Y154.361
;TIME_ELAPSED:119.976012
;LAYER:1
M106 S85
;TYPE:WALL-INNER
;MESH:helmholtz_test.stl
G1 F2700 E73.4323
G1 F1350 X96.35 Y153.577 E73.45837
G1 X203.65 Y153.577 E77.02718
G1 X203.65 Y154.36 E77.05323
G1 X96.35 Y154.361 E80.62204
G0 F7500 X95.95 Y154.761
;TYPE:WALL-OUTER
G1 F1350 X95.95 Y153.177 E80.67472
G1 X204.05 Y153.177 E84.27014
G1 X204.05 Y154.76 E84.3228
G1 X95.95 Y154.761 E87.91822
G0 F7500 X96.51 Y154.088
;TYPE:SKIN
G1 F1350 X96.862 Y153.736 E87.93477
G0 F7500 X96.964 Y154.2
G1 F1350 X97.428 Y153.736 E87.9566
G0 F7500 X97.529 Y154.2
G1 F1350 X97.993 Y153.736 E87.97842
G0 F7500 X98.095 Y154.2
G1 F1350 X98.559 Y153.736 E88.00025
G0 F7500 X98.661 Y154.2
G1 F1350 X99.125 Y153.736 E88.02207
G0 F7500 X99.226 Y154.2
G1 F1350 X99.69 Y153.736 E88.0439
G0 F7500 X99.792 Y154.2
G1 F1350 X100.256 Y153.736 E88.06572
G0 F7500 X100.358 Y154.2
G1 F1350 X100.822 Y153.736 E88.08755
G0 F7500 X100.923 Y154.2
G1 F1350 X101.387 Y153.736 E88.10937
G0 F7500 X101.489 Y154.2
G1 F1350 X101.953 Y153.736 E88.1312
G0 F7500 X102.055 Y154.2
G1 F1350 X102.519 Y153.736 E88.15302
G0 F7500 X102.62 Y154.2
G1 F1350 X103.084 Y153.736 E88.17485
G0 F7500 X103.186 Y154.2
G1 F1350 X103.65 Y153.736 E88.19667
G0 F7500 X103.752 Y154.2
G1 F1350 X104.216 Y153.736 E88.2185
G0 F7500 X104.318 Y154.2
G1 F1350 X104.781 Y153.736 E88.2403
G0 F7500 X104.883 Y154.2
G1 F1350 X105.347 Y153.736 E88.26213
G0 F7500 X105.449 Y154.2
G1 F1350 X105.913 Y153.736 E88.28395
G0 F7500 X106.015 Y154.2
G1 F1350 X106.478 Y153.736 E88.30575
G0 F7500 X106.58 Y154.2
G1 F1350 X107.044 Y153.736 E88.32758
G0 F7500 X107.146 Y154.2
G1 F1350 X107.61 Y153.736 E88.3494
G0 F7500 X107.712 Y154.2
G1 F1350 X108.176 Y153.736 E88.37123
G0 F7500 X108.277 Y154.2
G1 F1350 X108.741 Y153.736 E88.39305
G0 F7500 X108.843 Y154.2
G1 F1350 X109.307 Y153.736 E88.41488
G0 F7500 X109.409 Y154.2
G1 F1350 X109.873 Y153.736 E88.4367
G0 F7500 X109.974 Y154.2
G1 F1350 X110.438 Y153.736 E88.45853
G0 F7500 X110.54 Y154.2
G1 F1350 X111.004 Y153.736 E88.48035
G0 F7500 X111.106 Y154.2
G1 F1350 X111.57 Y153.736 E88.50218
G0 F7500 X111.671 Y154.2
G1 F1350 X112.135 Y153.736 E88.524
G0 F7500 X112.237 Y154.2
G1 F1350 X112.701 Y153.736 E88.54583
G0 F7500 X112.803 Y154.2
G1 F1350 X113.267 Y153.736 E88.56766
G0 F7500 X113.369 Y154.2
G1 F1350 X113.832 Y153.736 E88.58946
G0 F7500 X113.934 Y154.2
G1 F1350 X114.398 Y153.736 E88.61128
G0 F7500 X114.5 Y154.2
G1 F1350 X114.964 Y153.736 E88.63311
G0 F7500 X115.066 Y154.2
G1 F1350 X115.529 Y153.736 E88.65491
G0 F7500 X115.631 Y154.2
G1 F1350 X116.095 Y153.736 E88.67673
G0 F7500 X116.197 Y154.2
G1 F1350 X116.661 Y153.736 E88.69856
G0 F7500 X116.763 Y154.2
G1 F1350 X117.226 Y153.736 E88.72036
G0 F7500 X117.328 Y154.2
G1 F1350 X117.792 Y153.736 E88.74219
G0 F7500 X117.894 Y154.2
G1 F1350 X118.358 Y153.736 E88.76401
G0 F7500 X118.46 Y154.2
G1 F1350 X118.924 Y153.736 E88.78584
G0 F7500 X119.025 Y154.2
G1 F1350 X119.489 Y153.736 E88.80766
G0 F7500 X119.591 Y154.2
G1 F1350 X120.055 Y153.736 E88.82949
G0 F7500 X120.157 Y154.2
G1 F1350 X120.621 Y153.736 E88.85131
G0 F7500 X120.722 Y154.2
G1 F1350 X121.186 Y153.736 E88.87314
G0 F7500 X121.288 Y154.2
G1 F1350 X121.752 Y153.736 E88.89496
G0 F7500 X121.854 Y154.2
G1 F1350 X122.318 Y153.736 E88.91679
G0 F7500 X122.419 Y154.2
G1 F1350 X122.883 Y153.736 E88.93861
G0 F7500 X122.985 Y154.2
G1 F1350 X123.449 Y153.736 E88.96044
G0 F7500 X123.551 Y154.2
G1 F1350 X124.015 Y153.736 E88.98226
G0 F7500 X124.117 Y154.2
G1 F1350 X124.58 Y153.736 E89.00406
G0 F7500 X124.682 Y154.2
G1 F1350 X125.146 Y153.736 E89.02589
G0 F7500 X125.248 Y154.2
G1 F1350 X125.712 Y153.736 E89.04771
G0 F7500 X125.814 Y154.2
G1 F1350 X126.277 Y153.736 E89.06952
G0 F7500 X126.379 Y154.2
G1 F1350 X126.843 Y153.736 E89.09134
G0 F7500 X126.945 Y154.2
G1 F1350 X127.409 Y153.736 E89.11317
G0 F7500 X127.511 Y154.2
G1 F1350 X127.975 Y153.736 E89.13499
G0 F7500 X128.076 Y154.2
G1 F1350 X128.54 Y153.736 E89.15682
G0 F7500 X128.642 Y154.2
G1 F1350 X129.106 Y153.736 E89.17864
G0 F7500 X129.208 Y154.2
G1 F1350 X129.672 Y153.736 E89.20047
G0 F7500 X129.773 Y154.2
G1 F1350 X130.237 Y153.736 E89.22229
G0 F7500 X130.339 Y154.2
G1 F1350 X130.803 Y153.736 E89.24412
G0 F7500 X130.905 Y154.2
G1 F1350 X131.369 Y153.736 E89.26594
G0 F7500 X131.47 Y154.2
G1 F1350 X131.934 Y153.736 E89.28777
G0 F7500 X132.036 Y154.2
G1 F1350 X132.5 Y153.736 E89.30959
G0 F7500 X132.602 Y154.2
G1 F1350 X133.066 Y153.736 E89.33142
G0 F7500 X133.168 Y154.2
G1 F1350 X133.631 Y153.736 E89.35322
G0 F7500 X133.733 Y154.2
