;FLAVOR:Marlin
;TIME:366
;Filament used: 0.162268m
;Layer height: 0.12
;MINX:137.809
;MINY:64
;MINZ:0.12
;MAXX:162.192
;MAXY:236
;MAXZ:1.2
;Generated with Cura_SteamEngine 5.2.1
M140 S50
M105
M190 S50
M104 S200
M105
M109 S200
M82 ;absolute extrusion mode
M201 X500.00 Y500.00 Z100.00 E5000.00 ;Setup machine max acceleration
M203 X500.00 Y500.00 Z10.00 E50.00 ;Setup machine max feedrate
M204 P500.00 R1000.00 T500.00 ;Setup Print/Retract/Travel acceleration
M205 X8.00 Y8.00 Z0.40 E5.00 ;Setup Jerk
M220 S100 ;Reset Feedrate
M221 S100 ;Reset Flowrate

G28 ;Home

G92 E0 ;Reset Extruder
G1 Z2.0 F3000 ;Move Z Axis up
G1 X10.1 Y20 Z0.28 F5000.0 ;Move to start position
G1 X10.1 Y200.0 Z0.28 F1500.0 E15 ;Draw the first line
G1 X10.4 Y200.0 Z0.28 F5000.0 ;Move to side a little
G1 X10.4 Y20 Z0.28 F1500.0 E30 ;Draw the second line
G92 E0 ;Reset Extruder
G1 Z2.0 F3000 ;Move Z Axis up

G92 E0
G92 E0
G1 F2700 E-5
;LAYER_COUNT:10
;LAYER:0
M107
G0 F6000 X138.866 Y70.324 Z0.12
;TYPE:SKIRT
G1 F2700 E0
G1 F1200 X139.301 Y69.493 E0.01872
G1 X139.805 Y68.703 E0.03742
G1 X140.375 Y67.958 E0.05614
G1 X141.007 Y67.264 E0.07487
G1 X141.695 Y66.627 E0.09358
G1 X142.435 Y66.051 E0.11229
G1 X143.221 Y65.539 E0.13101
G1 X144.048 Y65.097 E0.14973
G1 X144.91 Y64.727 E0.16845
G1 X145.8 Y64.431 E0.18716
G1 X146.712 Y64.213 E0.20588
G1 X147.639 Y64.072 E0.22459
G1 X148.51 Y64.013 E0.24201
G1 X149.139 Y64 E0.25457
G1 X150.643 Y64.001 E0.28458
G1 X151.341 Y64.011 E0.29851
G1 X152.277 Y64.065 E0.31722
G1 X153.205 Y64.197 E0.33593
G1 X154.119 Y64.409 E0.35465
G1 X155.011 Y64.698 E0.37336
G1 X155.876 Y65.061 E0.39208
G1 X156.706 Y65.497 E0.41079
G1 X157.497 Y66.002 E0.42952
G1 X158.241 Y66.573 E0.44824
G1 X158.934 Y67.205 E0.46695
G1 X159.571 Y67.893 E0.48566
G1 X160.146 Y68.634 E0.50438
G1 X160.657 Y69.42 E0.52309
G1 X161.099 Y70.248 E0.54182
G1 X161.468 Y71.11 E0.56053
G1 X161.763 Y72 E0.57924
G1 X161.981 Y72.912 E0.59796
G1 X162.121 Y73.84 E0.61669
G1 X162.179 Y74.701 E0.63391
G1 X162.192 Y75.33 E0.64646
G1 X162.19 Y224.446 E3.62223
G1 X162.178 Y225.173 E3.63674
G1 X162.122 Y226.109 E3.65546
G1 X161.987 Y227.037 E3.67417
G1 X161.774 Y227.95 E3.69288
G1 X161.483 Y228.842 E3.7116
G1 X161.117 Y229.706 E3.73033
G1 X160.68 Y230.535 E3.74903
G1 X160.173 Y231.324 E3.76775
G1 X159.601 Y232.067 E3.78646
G1 X158.967 Y232.759 E3.80519
G1 X158.277 Y233.394 E3.8239
G1 X157.536 Y233.968 E3.84261
G1 X156.748 Y234.477 E3.86133
G1 X155.92 Y234.917 E3.88004
G1 X155.057 Y235.285 E3.89876
G1 X154.166 Y235.578 E3.91748
G1 X153.253 Y235.794 E3.9362
G1 X152.326 Y235.931 E3.9549
G1 X151.489 Y235.987 E3.97164
G1 X150.86 Y236 E3.9842
G1 X149.374 Y235.999 E4.01385
G1 X148.676 Y235.99 E4.02778
G1 X147.74 Y235.938 E4.04649
G1 X146.811 Y235.806 E4.06522
G1 X145.897 Y235.596 E4.08393
G1 X145.004 Y235.309 E4.10265
G1 X144.139 Y234.946 E4.12137
G1 X143.308 Y234.512 E4.14008
G1 X142.517 Y234.008 E4.1588
G1 X141.772 Y233.438 E4.17752
G1 X141.078 Y232.807 E4.19623
G1 X140.441 Y232.12 E4.21493
G1 X139.864 Y231.38 E4.23366
G1 X139.352 Y230.594 E4.25238
G1 X138.909 Y229.767 E4.2711
G1 X138.538 Y228.906 E4.28981
G1 X138.242 Y228.016 E4.30852
G1 X138.023 Y227.104 E4.32724
G1 X137.882 Y226.177 E4.34595
G1 X137.822 Y225.288 E4.36374
G1 X137.809 Y224.658 E4.37631
G1 X137.81 Y75.525 E7.35242
G1 X137.819 Y74.86 E7.36569
G1 X137.872 Y73.924 E7.3844
G1 X138.004 Y72.995 E7.40313
G1 X138.215 Y72.081 E7.42185
G1 X138.503 Y71.189 E7.44055
G1 X138.866 Y70.324 E7.45927
G0 F6000 X139.264 Y70.418
G1 F1200 X139.698 Y69.606 E7.47765
G1 X140.201 Y68.835 E7.49602
G1 X140.77 Y68.111 E7.51439
G1 X141.398 Y67.439 E7.53275
G1 X142.083 Y66.823 E7.55113
G1 X142.819 Y66.27 E7.5695
G1 X143.6 Y65.782 E7.58788
G1 X144.42 Y65.364 E7.60625
G1 X145.274 Y65.019 E7.62463
G1 X146.154 Y64.749 E7.643
G1 X147.054 Y64.557 E7.66136
G1 X147.968 Y64.443 E7.67975
G1 X148.521 Y64.413 E7.6908
G1 X149.139 Y64.4 E7.70313
G1 X150.485 Y64.4 E7.72999
G1 X151.335 Y64.411 E7.74696
G1 X152.254 Y64.464 E7.76533
G1 X153.165 Y64.597 E7.7837
G1 X154.061 Y64.808 E7.80207
G1 X154.935 Y65.096 E7.82043
G1 X155.782 Y65.459 E7.83882
G1 X156.593 Y65.894 E7.85719
G1 X157.363 Y66.398 E7.87556
G1 X158.087 Y66.967 E7.89393
G1 X158.759 Y67.597 E7.91231
G1 X159.374 Y68.282 E7.93068
G1 X159.927 Y69.018 E7.94906
G1 X160.414 Y69.799 E7.96742
G1 X160.831 Y70.62 E7.9858
G1 X161.176 Y71.474 E8.00418
G1 X161.445 Y72.354 E8.02254
G1 X161.637 Y73.255 E8.04093
G1 X161.75 Y74.168 E8.05929
G1 X161.779 Y74.712 E8.07016
G1 X161.792 Y75.33 E8.08249
G1 X161.79 Y224.439 E11.05813
G1 X161.778 Y225.166 E11.07264
G1 X161.722 Y226.085 E11.09101
G1 X161.588 Y226.996 E11.10938
G1 X161.374 Y227.891 E11.12775
G1 X161.084 Y228.765 E11.14613
G1 X160.72 Y229.61 E11.16449
G1 X160.283 Y230.421 E11.18287
G1 X159.777 Y231.19 E11.20124
G1 X159.207 Y231.913 E11.21961
G1 X158.576 Y232.583 E11.23798
G1 X157.889 Y233.197 E11.25637
G1 X157.152 Y233.748 E11.27473
G1 X156.37 Y234.233 E11.2931
G1 X155.548 Y234.649 E11.31148
G1 X154.694 Y234.991 E11.32984
G1 X153.812 Y235.259 E11.34823
G1 X152.912 Y235.448 E11.36659
G1 X151.998 Y235.559 E11.38496
G1 X151.478 Y235.587 E11.39535
G1 X150.86 Y235.6 E11.40769
G1 X149.379 Y235.599 E11.43724
G1 X148.681 Y235.59 E11.45117
G1 X147.762 Y235.538 E11.46954
G1 X146.851 Y235.407 E11.48791
G1 X145.955 Y235.197 E11.50628
G1 X145.08 Y234.91 E11.52465
G1 X144.233 Y234.548 E11.54303
G1 X143.421 Y234.114 E11.56141
G1 X142.65 Y233.612 E11.57977
G1 X141.925 Y233.044 E11.59815
G1 X141.252 Y232.415 E11.61653
G1 X140.637 Y231.731 E11.63489
G1 X140.083 Y230.996 E11.65325
G1 X139.595 Y230.215 E11.67163
G1 X139.176 Y229.395 E11.69001
G1 X138.83 Y228.542 E11.70838
G1 X138.56 Y227.662 E11.72675
G1 X138.367 Y226.761 E11.74514
G1 X138.253 Y225.848 E11.7635
G1 X138.222 Y225.277 E11.77491
G1 X138.209 Y224.658 E11.78726
G1 X138.21 Y75.531 E14.76326
G1 X138.219 Y74.866 E14.77653
G1 X138.271 Y73.946 E14.79492
G1 X138.403 Y73.035 E14.81329
G1 X138.614 Y72.139 E14.83166
G1 X138.901 Y71.264 E14.85003
G1 X139.264 Y70.418 E14.8684
G0 F6000 X139.662 Y70.514
G1 F1200 X140.095 Y69.722 E14.88642
G1 X140.597 Y68.971 E14.90444
G1 X141.164 Y68.267 E14.92248
G1 X141.79 Y67.617 E14.94049
G1 X142.471 Y67.024 E14.95851
G1 X143.203 Y66.494 E14.97655
G1 X143.978 Y66.031 E14.99456
G1 X144.791 Y65.638 E15.01258
G1 X145.636 Y65.318 E15.03061
G1 X146.505 Y65.075 E15.04862
G1 X147.393 Y64.909 E15.06665
G1 X148.532 Y64.813 E15.08946
G1 X149.139 Y64.8 E15.10158
G1 X150.485 Y64.8 E15.12844
G1 X151.329 Y64.811 E15.14528
G1 X152.231 Y64.864 E15.16331
G1 X153.124 Y64.996 E15.18133
G1 X154.002 Y65.207 E15.19935
G1 X154.858 Y65.495 E15.21737
G1 X155.685 Y65.857 E15.23539
G1 X156.477 Y66.292 E15.25342
G1 X157.228 Y66.794 E15.27145
G1 X157.931 Y67.361 E15.28947
G1 X158.581 Y67.988 E15.30749
G1 X159.173 Y68.67 E15.32551
G1 X159.703 Y69.401 E15.34353
G1 X160.165 Y70.177 E15.36156
G1 X160.558 Y70.99 E15.37958
G1 X160.876 Y71.835 E15.39759
G1 X161.119 Y72.705 E15.41562
G1 X161.284 Y73.593 E15.43364
G1 X161.379 Y74.723 E15.45627
G1 X161.392 Y75.33 E15.46839
G1 X161.39 Y224.432 E18.44388
G1 X161.378 Y225.159 E18.45839
G1 X161.323 Y226.061 E18.47643
G1 X161.188 Y226.954 E18.49445
G1 X160.976 Y227.831 E18.51246
G1 X160.686 Y228.687 E18.53049
G1 X160.322 Y229.513 E18.5485
G1 X159.886 Y230.304 E18.56653
G1 X159.382 Y231.054 E18.58456
G1 X158.813 Y231.755 E18.60258
G1 X158.185 Y232.404 E18.6206
G1 X157.502 Y232.995 E18.63863
G1 X156.769 Y233.523 E18.65665
G1 X155.993 Y233.984 E18.67467
G1 X155.178 Y234.374 E18.6927
G1 X154.333 Y234.691 E18.71071
G1 X153.462 Y234.932 E18.72874
G1 X152.574 Y235.095 E18.74676
G1 X151.467 Y235.187 E18.76893
G1 X150.86 Y235.2 E18.78104
G1 X149.384 Y235.199 E18.8105
G1 X148.686 Y235.19 E18.82443
G1 X147.785 Y235.139 E18.84244
G1 X146.891 Y235.007 E18.86047
G1 X146.013 Y234.798 E18.87848
G1 X145.156 Y234.511 E18.89652
G1 X144.329 Y234.15 E18.91453
G1 X143.536 Y233.717 E18.93256
G1 X142.785 Y233.216 E18.95057
G1 X142.081 Y232.65 E18.9686
G1 X141.43 Y232.024 E18.98662
G1 X140.837 Y231.343 E19.00464
G1 X140.307 Y230.612 E19.02266
G1 X139.843 Y229.837 E19.04069
G1 X139.449 Y229.024 E19.05872
G1 X139.129 Y228.18 E19.07673
G1 X138.885 Y227.31 E19.09476
G1 X138.719 Y226.422 E19.11279
G1 X138.622 Y225.267 E19.13592
G1 X138.609 Y224.658 E19.14808
G1 X138.61 Y75.536 E22.12397
G1 X138.619 Y74.871 E22.13724
G1 X138.671 Y73.969 E22.15527
G1 X138.803 Y73.076 E22.17328
G1 X139.013 Y72.198 E22.1913
G1 X139.3 Y71.341 E22.20933
G1 X139.662 Y70.514 E22.22735
G1 F2700 E17.22735
;MESH:coil_holder.stl
G0 F6000 X148.144 Y75.414
G0 X149.223 Y75.414
G0 X149.804 Y224.005
;TYPE:WALL-INNER
G1 F2700 E22.22735
G1 F1227.6 X150.196 Y224.005 E22.235
G1 X150.196 Y76.191 E25.11841
G1 X150.196 Y75.995 E25.12224
G1 X149.804 Y75.995 E25.12988
G1 X149.804 Y224.005 E28.01713
G0 F6000 X149.409 Y224.4
G1 F1200 X150.591 Y224.4 E28.04071
G1 X150.591 Y76.191 E30.99838
G1 X150.591 Y75.6 E31.01018
G1 X149.409 Y75.6 E31.03377
G1 X149.409 Y224.4 E34.00323
G0 F6000 X149.009 Y224.8
;TYPE:WALL-OUTER
G1 F1200 X150.991 Y224.8 E34.04278
G1 X150.991 Y76.191 E37.00844
G1 X150.991 Y75.2 E37.02821
G1 X149.009 Y75.2 E37.06777
G1 X149.009 Y224.8 E40.0532
G0 F6000 X149.891 Y223.8
;MESH:NONMESH
G0 F300 X149.891 Y223.8 Z0.24
G0 F6000 X149.812 Y224.012
;TIME_ELAPSED:107.704043
;LAYER:1
M106 S85
;TYPE:WALL-INNER
;MESH:coil_holder.stl
G1 F1436.2 X150.188 Y224.012 E40.06025
G1 X150.188 Y76.176 E42.83346
G1 X150.188 Y75.988 E42.83699
G1 X149.812 Y75.988 E42.84404
G1 X149.812 Y224.012 E45.62078
G0 F7500 X149.424 Y224.4
G1 F1350 X150.576 Y224.4 E45.64377
G1 X150.576 Y76.176 E48.60174
G1 X150.576 Y75.6 E48.61324
G1 X149.424 Y75.6 E48.63623
G1 X149.424 Y224.4 E51.60569
G0 F7500 X149.024 Y224.8
;TYPE:WALL-OUTER
G1 F1350 X150.976 Y224.8 E51.64465
G1 X150.976 Y76.176 E54.6106
G1 X150.976 Y75.2 E54.63008
G1 X149.024 Y75.2 E54.66903
G1 X149.024 Y224.8 E57.65446
G0 F7500 X149.906 Y223.8
;MESH:NONMESH
G0 F300 X149.906 Y223.8 Z0.36
G0 F7500 X149.82 Y224.02
;TIME_ELAPSED:147.429319
;LAYER:2
M106 S170
;TYPE:WALL-INNER
;MESH:coil_holder.stl
G1 F1666.7 X150.18 Y224.02 E57.66093
G1 X150.18 Y76.16 E60.31656
G1 X150.18 Y75.98 E60.31979
G1 X149.82 Y75.98 E60.32626
G1 X149.82 Y224.02 E62.98513
G0 F9000 X149.44 Y224.4
G1 F1500 X150.56 Y224.4 E63.00748
G1 X150.56 Y76.16 E65.96577
G1 X150.56 Y75.6 E65.97694
G1 X149.44 Y75.6 E65.9993
G1 X149.44 Y224.4 E68.96876
G0 F9000 X149.04 Y224.8
;TYPE:WALL-OUTER
G1 F1500 X150.96 Y224.8 E69.00708
G1 X150.96 Y76.16 E71.97335
G1 X150.96 Y75.2 E71.99251
G1 X149.04 Y75.2 E72.03082
G1 X149.04 Y224.8 E75.01625
G0 F9000 X149.922 Y223.8
;MESH:NONMESH
G0 F300 X149.922 Y223.8 Z0.48
G0 F9000 X149.487 Y224.4
;TIME_ELAPSED:182.841637
;LAYER:3
M106 S255
;TYPE:WALL-INNER
;MESH:coil_holder.stl
G1 F1500 X150.513 Y224.4 E75.03673
G1 X150.513 Y76.113 E77.99595
G1 X150.513 Y75.6 E78.00619
G1 X149.487 Y75.6 E78.02667
G1 X149.487 Y224.4 E80.99613
G0 F9000 X149.087 Y224.8
;TYPE:WALL-OUTER
G1 F1500 X150.913 Y224.8 E81.03257
G1 X150.913 Y76.113 E83.99978
G1 X150.913 Y75.2 E84.018
G1 X149.087 Y75.2 E84.05444
G1 X149.087 Y224.8 E87.03987
G0 F9000 X149.357 Y224.53
G0 X150 Y223.887
;TYPE:WALL-INNER
G1 F958.5 X150 Y76.113 E91.65504
G0 F9000 X150.087 Y76.113
G1 F2700 E86.65504
;MESH:NONMESH
G0 F300 X150.087 Y76.113 Z0.6
G0 F9000 X149.757 Y224.13
G1 F2700 E91.65504
G0 F9000 X149.537 Y224.4
;TIME_ELAPSED:218.294149
;LAYER:4
;TYPE:WALL-INNER
;MESH:coil_holder.stl
G1 F1500 X150.463 Y224.4 E91.67352
G1 X150.463 Y76.063 E94.63374
G1 X150.463 Y75.6 E94.64298
G1 X149.537 Y75.6 E94.66146
G1 X149.537 Y224.4 E97.63093
G0 F9000 X149.137 Y224.8
;TYPE:WALL-OUTER
G1 F1500 X150.863 Y224.8 E97.66537
G1 X150.863 Y76.063 E100.63358
G1 X150.863 Y75.2 E100.6508
G1 X149.137 Y75.2 E100.68525
G1 X149.137 Y224.8 E103.67068
G0 F9000 X149.407 Y224.53
G0 X150 Y223.937
;TYPE:WALL-INNER
G1 F1140.7 X150 Y76.063 E107.55122
G0 F9000 X150.137 Y76.063
G1 F2700 E102.55122
;MESH:NONMESH
G0 F300 X150.137 Y76.063 Z0.72
G0 F9000 X149.807 Y224.13
G1 F2700 E107.55122
G0 F9000 X149.608 Y224.4
;TIME_ELAPSED:252.263106
;LAYER:5
;TYPE:WALL-INNER
;MESH:coil_holder.stl
G1 F1500 X150.392 Y224.4 E107.56687
G1 X150.392 Y75.6 E110.53633
G1 X149.608 Y75.6 E110.55198
G1 X149.608 Y224.4 E113.52144
G0 F9000 X150 Y224.008
G1 F1562.5 X150 Y75.992 E116.35711
G1 F2700 E111.35711
G0 F9000 X149.478 Y224.53
G1 F2700 E116.35711
G0 F9000 X149.208 Y224.8
;TYPE:WALL-OUTER
G1 F1500 X150.792 Y224.8 E116.38872
G1 X150.792 Y75.2 E119.37415
G1 X149.208 Y75.2 E119.40576
G1 X149.208 Y224.8 E122.39119
;MESH:NONMESH
G0 F300 X149.208 Y224.8 Z0.84
G0 F9000 X149.749 Y224.35
;TIME_ELAPSED:284.088982
;LAYER:6
;TYPE:WALL-INNER
;MESH:coil_holder.stl
G1 F1197.6 X150.251 Y224.35 E122.40374
G1 X150.251 Y75.901 E126.11422
G1 X150.251 Y75.65 E126.12049
G1 X149.749 Y75.65 E126.13304
G1 X149.749 Y224.35 E129.84979
G0 F9000 X149.299 Y224.8
;TYPE:WALL-OUTER
G1 F1500 X150.701 Y224.8 E129.87777
G1 X150.701 Y75.901 E132.84921
G1 X150.701 Y75.2 E132.8632
G1 X149.299 Y75.2 E132.89118
G1 X149.299 Y224.8 E135.87661
;MESH:NONMESH
G0 F300 X149.299 Y224.8 Z0.96
G0 F9000 X149.81 Y224.409
;TIME_ELAPSED:311.467588
;LAYER:7
;TYPE:WALL-INNER
;MESH:coil_holder.stl
G1 F1570.7 X150.191 Y224.409 E135.88387
G1 X150.191 Y75.781 E138.71643
G1 X150.19 Y75.591 E138.72005
G1 X149.809 Y75.591 E138.72731
G1 X149.81 Y224.409 E141.5635
G0 F9000 X149.419 Y224.8
;TYPE:WALL-OUTER
G1 F1500 X150.582 Y224.8 E141.58671
G1 X150.582 Y75.781 E144.56054
G1 X150.581 Y75.2 E144.57214
G1 X149.418 Y75.2 E144.59534
G1 X149.419 Y224.8 E147.58077
;MESH:NONMESH
G0 F300 X149.419 Y224.8 Z1.08
G0 F9000 X149.576 Y224.8
;TIME_ELAPSED:335.263667
;LAYER:8
;TYPE:WALL-OUTER
;MESH:coil_holder.stl
G1 F1500 X150.425 Y224.8 E147.59772
G1 X150.425 Y75.624 E150.57469
G1 X150.424 Y75.2 E150.58315
G1 X149.575 Y75.2 E150.60009
G1 X149.576 Y224.8 E153.58552
G0 F9000 X150 Y224.376
;TYPE:WALL-INNER
G1 F1333.3 X150 Y75.624 E156.92509
G1 F2700 E151.92509
;MESH:NONMESH
G0 F300 X150 Y75.624 Z1.2
G0 F9000 X149.822 Y224.5
G1 F2700 E156.92509
G0 F9000 X149.822 Y224.822
;TIME_ELAPSED:355.908913
;LAYER:9
;TYPE:WALL-OUTER
;MESH:coil_holder.stl
G1 F1680.7 X150.179 Y224.822 E156.93145
G1 X150.178 Y75.178 E159.59673
G1 X149.821 Y75.178 E159.60309
G1 X149.822 Y224.822 E162.26837
;TIME_ELAPSED:366.735194
G1 F2700 E157.26837
M140 S0
M107
G91 ;Relative positioning
G1 E-2 F2700 ;Retract a bit
G1 E-2 Z0.2 F2400 ;Retract and raise Z
G1 X5 Y5 F3000 ;Wipe out
G1 Z10 ;Raise Z more
G90 ;Absolute positioning

G1 X0 Y300 ;Present print
M106 S0 ;Turn-off fan
M104 S0 ;Turn-off hotend
M140 S0 ;Turn-off bed

M84 X Y E ;Disable all steppers but Z

M82 ;absolute extrusion mode
M104 S0
;End of Gcode
